X:1
T:Godalni kvartet v g-molu, op. 27
T:Quartet in g, op. 27
T:Edvard Grieg
T:I
C:Edvard Grieg
%%score [ ( 1 2 ) ( 3 4 ) ( 5 6 ) ( 7 8 ) ]
L:1/8
Q:1/2=60
M:2/2
K:Bb
V:1 treble nm="Violin I"
V:2 treble 
V:3 treble nm="Violin II"
V:4 treble 
V:5 alto nm="Viola"
V:6 alto 
V:7 bass nm="Violoncello"
V:8 bass 
V:1
"^Un poco Andante"!f! !>![Bg]8 | !>!f4 !>!d2 !>!f2 | !>!f4 (!>!e4- | e4 !>!B4) | !>![Fd]8- | %5
!>(! [Fd]8-!>)! | [Fd]4 (!tenuto!D4 |!<(! !tenuto!D4 !tenuto!D4)!<)! | D8- | D8 |!>(! (B,8!>)! | %11
 C8) |!p!!>(! D8-!>)! | D4 !fermata!z4 |!pp!!>(! D8-!>)! | D4 !fermata!z4 || %16
[Q:1/4=144]"^Allegro molto ed agitato"!pp![Q:1/2=100] (DE).E.F ((D4 | D)E).E.F ((D4 | %18
 D)E)(.E.F) (FG)!<(!(.G.A)!<)! |!>(! (A!>)!G).G.F (F2 D2) | (FG).G.A (F4- | FG).G.A ((F4 | %22
 F)G)(.G.A) (AB)!<(!(.B.c)!<)! |!>(! (cB)!>)!.B.A (A2 F2) | (AB)(.B.c) (cd)!<(!(.d.e)!<)! | %25
!>(! (ed)!>)!.d.c (c2 A2) |"_cresc." (cd)(.d.e) (ef)!<(!(.f.g)!<)! |!>(! (gf)!>)!.f.e (e2 c2) | %28
 (!>!gf).f.e (e2 c2) | (!>!gf).f.e (e2 c2) | (!>![Ecb]a).a.g (g2 e2) | (!>![Ecb]a).a.g (g2 e2) | %32
!sfz! ([Ddd']a(ad)) (da)(ad') | .d'2 !>![dd']6 |!p! (!>![EBb]a).a.g"_cresc." (g2 e2) | %35
 (!>![EBb]a).a.g (g2 e2) |!sfz! ([Ddd']a(ad)) (da)(ad') | .d'2 !>![dd']6 | %38
!f! (ud'a)(ad') .d'2 !>![Ddd']2 |!f! (d'a)(ad') .d'2 !>![Ddd']2 | (!>!vd'a)(ad') (d'a)(ad') | %41
 (d'a)(ad') (d'a)(ad') |!sfz! ([Ddd']a)(ad) (dA)(AD) |"_sost."!<(! (DA)(Ad) (da)(ad')!<)! | %44
"^A"[Q:1/4=200]"^a tempo"!ff! (d'e').e'.f' ((d'4 | d')e').e'.f' d'4- | d'2 v[ge']4 [gf']2- | %47
 [gf']2 [ge']4 [gd']2 | !>![gf']2 v[ge']4 [gd']2 | [gf']2 [ge']2 [ge']2 [gd']2 | %50
"_stretto" (3!>![gf']2 [ge']2 [ge']2 (3[ge']2 [gd']2 [gd']2 | %51
!<(! [gf'][ge'][ge'][ge'] [ge'][gd'][gd'][gd']!<)! | %52
[Q:1/4=200]"^a tempo" ((([D^fd'][fe']))).[fe'].[f=f'] ([fd']4- | %53
 [fd'][^fe']).[fe'].[f=f'] [fd']4- | [fd']2 v[^fe']4 [f=f']2- | [ff']2 [^fe']4 [fd']2 | %56
 !>![^f=f']2 v[fe']4 [fd']2 | [^f=f']2 [fe']2 [fe']2 [fd']2 | %58
"_stretto" (3!>![^f=f']2 [fe']2 [fe']2 (3[fe']2 [fd']2 [fd']2 | %59
!<(! [^f=f'][fe'][fe'][fe'] [fe'][fd'][fd'][fd']!<)! | %60
[Q:1/4=200]"^a tempo"{/^f} .^f'2 (!>!vg'4 =f'2) | (!>!f'e').e'.e' (!>!e'd').d'.d' | %62
 .^c'2 (!>!d'4 =c'2) | (!>!c'b).b.b (!>!ba).a.a | .^c'2 !>!d'4!sfz! (ve'2 | %65
 (3e'2) !>!e'2 !>!d'2 (3!>!^c'2 !>!d'2 !>!b2 | .^f2 (vg4 =f2) | (!>!fe).e.e (!>!ed).d.d | %68
 .^c2 (!>!d4 =c2) | (!>!cB).B.B (!>!BA).A.A |!pp! .^c2 d4 e2- | e2 =e4 f2- | f2"_cresc." ^f4 g2- | %73
 g2 ^g4 a2- |"_molto" a2 b4 =b2- | b2 c'4 ^c'2- | c'2 [dd']4 [ee']2- | %77
 [ee']2 [=e=e']2 [ff']2 [^f^f']2 |!ff! [gg']8- | [gg']8- | [gg']4 [gg']4- | [gg']4 [gg']4- | %82
 [gg']2 [gg']4 [gg']2- | [gg']2 [gg']4 [gg']2- | [gg']2 [gg']2 [gg']2 [gg']2 | %85
 [gg']2 [gg']2 [gg']2 [gg']2 | .[gg']2 [gg'][gg'] .[gg']2 [gg'][gg'] | %87
 .[gg']2 [gg'][gg'] .[gg']2 [gg'][gg'] | z2 !>!g4 !>!^f2 | (!>!d4 !>!B4) | .uG.D!<(! G,6- | G,8- | %92
 .[G,DBg]4!<)! z4 | z8 |"^B"[Q:1/2=80] (b8 |!pp! a4 f2 a2) | (a4 g4- | g4 d4 |!<(! f8)!<)! | %99
!>(! (g4!>)! a4) |!<(! f8!<)! | (g2!>(! b4!>)! a2) |!<(! f8!<)! |!>(! (g2 d'2!>)!{bc'} b2 a2) | %104
 .g4 f4- | f4 z4 | z8 | z8 | z8 | z8 |!pp! (f8 | e4 c2 e2) | (e4 _d4- | d4 _A4 |!<(! c8)!<)! | %115
!>(! (_d4!>)! e4) |!<(! c8!<)! |!>(! (_d2 f4!>)! =e2) |!<(! c8!<)! |!>(! (_d2 _a2!>)!{fg} f2 =e2) | %120
 ._d4 c4- | c4 z4 | z8 | z8 | z8 | z8 |"^animato"!pp![Q:1/2=120] c4 (B2 GB) | .B2 A4 z2 | %128
 .d2 c4 z2 | .B2 A4 z2 |"_cresc." e4 (d2 Bd) | .d2 c4 z2 | .f2 e4 z2 | .d2 c4 z2 | %134
 (gf).d.f .f2 .e2 | (ba).f.a .a2 .g2 | (e'd')(.b.d') .c'.a.c'.b | .g.b.a.f .a.g.e.g | %138
 (fd)(.f.e) .c.e.d.B | .d.c"_dim.".A.c .B.G.B.A | .F.A.G.E .A.G.E.A | .G.E.A.G .E.A.G.E | %142
 z!p! ._A._G.E .A.G.E.A |!>(! ._G.E._A.G .E.A.G.E!>)! |"^C" z2!pp! =B4 c2- | %145
 c2!<(! (d2 e2 c'2)!<)! |!>(! (c'8!>)! | e4) z4 | z2 d4 e2- | e2!<(! (f2 g2!<)! e'2) | %150
!>(! (e'8!>)! | g4) z4 | (3z2 =B2 c2!<(! (3(d2 e2!<)! c'2) |!>(! (!>!c'4!>)! e2) z2 | %154
 (3z2 d2 e2!<(! (3(f2 g2!<)! e'2) |!>(! (!>!e'4!>)! g2) z2 | z!<(! (=Bc!<)!c') (!>!c'4 | %157
 c')!<(!(de!<)!e') (!>!e'4 |!f! e')(f_g_g') z!<(! (fgg') | z (f_g_g') z (fg!<)!g') | %160
 z (^fgg') g'4- | ((g'4 g')f'e'd') | (3(c'ba (3gfe (3dcB (3AGF) | %163
 (E/D/C/B,/ A,/B,/C/D/ (6:4:6E/F/G/A/B/c/ (7:4:7d/e/f/g/a/b/c'/) | %164
!ff!"_marcato" ((d'4 !tenuto!c'2)) .a.c' | .c'2 b4 a2 | (g4 !tenuto!f2) .d.f | .f2 e4 d2- | %168
"_dim. ed un poco rit." d2 c4 B2- | B2 A4 (G2- | G2 F4) G2 | (F2 (E2 (3E2)) G2 F2 | (E2 D4 B2- | %173
 B2 C4 B2) |"^D"[Q:1/4=200]"^a tempo"!p! (B4 !tenuto!A2) .F.A | .^F2 G4 G2 | (c4 !tenuto!B2) .G.B | %177
 .^G2 A4 A2 |"_cresc." (d2 c2) A2 B2 | (e2 d2) (=B2 c2) | f2 !>!^f4 !>!a2- | a2 (!>!g4 .f2) | %182
!f! (b4 !tenuto!a2) .f.a | .^f2 g4 g2 | (c'4 !tenuto!b2) .g.b | .^g2 a4 a2 | %186
!f! !>!d'2 !>!c'2 !>!a2 !>!b2 |"_rit." !>!e'2 !>!d'2 !>!=b2 !>!c'2 | !>!f'2 !>!^f'2 !>!a'2 !>!g'2 | %189
 !>!f'2 !>!=e'2 !>!_e'2 !>!c'2 |[Q:1/4=200]"^a tempo" (b4 !tenuto!a2) f!ff!a | .g2 f4 z2 | %192
 (e4 !tenuto!d2) Bd | .c2 B4 z2 | z4 z2!pp! B,D | .C2 B,4"_cresc. molto" Bd | .c2 .B2 .c2 .B2 | %197
 .c'2 .b2 .c'2 .b2 | z4!ff! [db]4- | [db]4 [db]4- | [db]4 [db]4- | [db]4 z4 | %202
 z4"_lentamente" !>![_db]4- | [db]4 !>![_db]4- | [db]4 !>![_db]4- | !fermata![db]4 z4 | %206
[Q:1/4=200]"^a tempo"!pp! (F_G).G._A ((F4 | F)_G).G._A ((F4 | F)_G)(.G._A) (AB)!<(!(.B.c)!<)! | %209
!>(! (cB)!>)!(.B._A) (A2 F2) | z4 z2!p! .f2 | (!>!_d2 B2) z2 .c2 | (!>!_A2 F2) z2 .f2 | %213
 (!>!_d2 B2) z2 .f2 |!<(! (3(!>!_d2 B2) .f2 (3(!>!d2 B2) .f2!<)! | z2!pp! ((=E2!<(! E)F)FG!<)! | %216
 z2 ((G2!<(! G)_A)AB!<)! | z2 ((B2!<(! B)c)c_d!<)! | z2 ((_d2!<(! d)e)(e=e)!<)! | %219
"_cresc." (=ef)(fg) (g_a)(ab) | (bc')(c'_d') (d'e')(e'=e') | (_d'e')(e'=e') (d'_e')(e'=e') | %222
"_poco rit." (_d'e')(e'=e') (d'_e')(e'=e') |"^E" (=e8 | d4!<(! =B2 d2)!<)! |!>(! (d4 ^c4-!>)! | %226
 c4 B4) |[Q:1/4=200]"^a tempo"!pp! (^FG).G.A ((F4 | F)G).G.A ((^F4 | %229
 ^F)G).G.A (A=B)!<(!(.B!<)!.^c) |!>(! (^c=B)!>)!.B.A (A2 ^F2) | z4 z2 .^f2 | (!>!d2 =B2) z2 .^c2 | %233
 (!>!A2 ^F2) z2 .^f2 | (!>!d2 =B2) z2 .^f2 |!<(! (3(!>!d2 =B2) .^f2 (3(!>!d2 B2) .f2!<)! | %236
!pp! z2 ((F2!<(! F)^F)(F^G)!<)! | z2 ((^G2!<(! G)A)(A=B)!<)! | z2 ((=B2!<(! B)^c)(cd)!<)! | %239
 z2 ((d2!<(! d)=e)(ef)!<)! |"_cresc." (f^f)(f^g) (ga)(a=b) | (=b^c')(c'd') (d'=e')(e'f') | %242
 (d'=e')(e'f') (d'e')(e'f') |"_poco rit.\n" (d'=e')(e'f') (d'e')(e'f') |"^F" (f8 | %245
 e4!<(! c2 e2)!<)! |!>(! (e4!>)! d4- | d4 =B4) | %248
[Q:1/4=200]"^a tempo" z2!ff! !>![cg]2- [cg]!<(!.[dg].[dg].[eg]!<)! | %249
 z2 !>![cg]2- [cg]!<(!.[dg].[dg].[eg]!<)! | .[cg]2 v[dg]4 [eg]2- | [eg]2 [dg]4 .[cg]2 | %252
!pp! (!>!e2 c2) z2 .g2 | (!>!e2 c2) z2"_cresc. molto" .g2 | (!>!=e2 ^c2) z2 .g2 | %255
 (!>!=e2 ^c2) z2 .g2 |!ff! z2 !>![^c^g]2-!<(! [cg].[eg].[eg].[=eg]!<)! | %257
 z2 !>![^c^g]2-!<(! [cg].[eg].[eg].[=eg]!<)! | .[^c^g]2 v[eg]4 [=eg]2- | [eg]2 [_e^g]4 .[^cg]2 | %260
!pp! (!>!=e2 ^c2) z2 .^g2 | (!>!=e2 ^c2) z2 .^g2 |"_cresc. molto" (!>!f2 d2) z2 .^g2 | %263
 (!>!f2 d2) z2 .^g2 |"^G" z2!ff! !>![da]2- [da]!<(!.[=ea].[ea].[fa]!<)! | z4 z2!pp! .a2 | %266
 (f2 d2) z2 .a2 | z2!ff!!ff! !>![ea]2-!<(! [ea].[=ea].[ea].[^fa]!<)! | z4 z2!pp! a2 | %269
 (_g2 e2) z2 b2 | (_g2 e2) z2 _c'2 |!<(! (_g2 e2) z2 c'2!<)! | (_g2 e2) z2 c'2 | %273
!>(! (_g2 e2) z2 c'2!>)! |!pp! (_g2 e2) z2 c'2 | (_g2 e2) z2 c'2 | (_g2 e2) z2 c'2 | %277
 (_g2 e2) z2 c'2 | (_g2 e2) z2 c'2 | (_g2 e2) z2 c'2 | (_g2 e2) z2 c'2 | (_g2 e2) z2 c'2 | %282
 (_g2 e2) z2 c'2 | (_g2 e2) z2 a2 | (e2 c2) z2 a2 | (e2 c2) z2 a2 | (e2 c2) z2 a2 | (e2 c2) z2 a2 | %288
 (e2 c2) z2 a2 | (e2 c2) z2 a2 | (e2 c2) z2 a2 | (e2 c2) z2 a2 | (e2 c2) z2 a2 | (e2 c2) z2 a2 | %294
 (e2 c2) z2 a2 | (e2 c2) z4 | z4 z2 _a2 | (e2 c2) z4 | z4"_poco riten." _a4 | (e4 c4) | z8 | z8 | %302
"^H""^tranquillo"[Q:1/4=200]"^a tempo"!ppp! v_A8- | A8 | !tenuto!_A8- | !tenuto!A8 | (!>!_A4 =A4) | %307
 (.A4 .=B4) | _A8- | A8 | (_A8 |{G_A} G4 E2 G2 | ._A4) A4 |!<(! (!tenuto!_A4 !tenuto!A4)!<)! | %314
"_sul D." (!>!_A2 __B2) .B2 ._c2 |!<(! (_c2 _d2) .d2 .e2!<)! |!>(! (e2 _d2) .d2 ._c2!>)! | %317
 (_c4 _A4) | _A8- | A4 (3(._A2 .A2 .A2) |"_rit. molto"!<(! _A4 G4 | B4 _A4!<)! |"^Lento"!>(! _A8- | %323
 A8 | G8- | G8!>)! |"^Allegro agitato"!ppp! (DE).E.F ((D4 | D)E).E.F ((D4 | %328
 D)E)(.E.F) (FG)!<(!(.G!<)!.A) |!>(! (AG)!>)!.G.F (F2 D2) | (FG).G.A ((F4 | F)G)GA ((F4 | %332
 F)G)(.G.A) (AB)!<(!(.B.c) |!>(! (c!<)!B)!>)!.B.A (A2 F2) | %334
"_cresc." (AB)(.B.c) (cd)!<(!(.d.e)!<)! |!>(! (ed)!>)!.d.c (c2 A2) | %336
 (cd)(.d.e) (ef)!<(!(.f.g)!<)! |!>(! (g!>)!f).f.e (e2 c2) |!>(! (gf).f.e!>)! (e2 c2) | %339
!>(! (gf).f.e!>)! (e2 c2) | (!>![Ecb]a).a.g (g2 e2) | (!>![Ecb]a).a.g (g2 e2) | %342
!sfz! ([Ddd']a(ad)) (da)(ad') | .d'2 !>![dd']6 |!f! (d'a)(ad') .d'2 !>![Ddd']2 | %345
 (d'a)(ad') .d'2 !>![Ddd']2 | (vd'!f!a)(ad') (!>!d'a)(ad') | (!>!d'a)(ad') (!>!d'a)(ad') | %348
 (!>!d'a)(ad) (dA)(AD) |"_sost." (DA)(Ad) (da)(ad') |"^a tempo"!ff! (d'e').e'.f' ((d'4 | %351
 d')e').e'.f' (d'4 | d'2) v[ge']4 [gf']2- | [gf']2 [ge']4 [gd']2 | !>![gf']2 v[ge']4 [gd']2 | %355
 !>![gf']2 [ge']2 [ge']2 [gd']2 |"^stretto" (3!>![gf']2 [ge']2 [ge']2 (3[ge']2 [gd']2 [gd']2 | %357
!<(! !>![gf'][ge'][ge'][ge'] [ge'][gd'][gd'][gd']!<)! | %358
"^a tempo" ([D^fd'][fe']).[fe'].[f=f'] ([fd']4- | [fd'][^fe']).[fe'].[ff'] [fd']4- | %360
 [fd']2 v[^fe']4 [f=f']2- | [ff']2 [^fe']4 [fd']2 | !>![f=f']2 v[fe']4 [fd']2 | %363
"^stretto\n" !>![f=f']2 [fe']2 [fe']2 [fd']2 | (3!>![^f=f']2 [fe']2 [fe']2 (3[fe']2 [fd']2 [fd']2 | %365
!<(! !>![^f=f'][fe'][fe'][fe'] [fe'][fd'][fd'][fd']!<)! |"^a tempo"{/^f} .^f'2 (!>!vg'4 =f'2) | %367
 (!>!f'e')e'e' (!>!e'd')d'd' | .^c'2 (!>!d'4 =c'2) | (!>!c'b)bb (!>!ba)aa | %370
!<(! .^c'2 !>!d'4!<)!!sfz! (e'2 | (3e'2) !>!e'2 !>!d'2 (3!>!^c'2 !>!d'2 !>!b2 | .^f2 (!>!vg4 =f2) | %373
 (!>!fe)ee (!>!ed)dd | .^c2 (!>!d4 =c2) | (!>!cB)BB (!>!BA)AA |!pp! .^c2 d4 e2- | e2 =e4 f2- | %378
"_cresc. molto e stretto" f2 ^f4 g2- | g2 ^g4 a2- | a2 b4 =b2- | b2 c'4 ^c'2- | %382
 c'2 [dd']4 [ee']2- | [ee']2 !>![=e=e']2 !>![ff']2 !>![^f^f']2 |!ff! [gg']8- | [gg']8- | %386
 [gg']4 [gg']4- | [gg']4 [gg']4- | [gg']2 [gg']4 [gg']2- | [gg']2 [gg']4 [gg']2- | %390
 [gg']2 !>![gg']2 !>![gg']2 !>![gg']2 | !>![gg']2 !>![gg']2 !>![gg']2 !>![gg']2 | %392
 !>!.[gg']2 [gg'][gg'] !>!.[gg']2 [gg'][gg'] | !>!.[gg']2 [gg'][gg'] !>!.[gg']2 [gg'][gg'] | %394
 z2 !>!g4 !>!^f2 | (!>!d4 !>!B4) | !>!.uG.D!<(! G,6- | G,8- | .[G,DBg]4!<)! z4 | z8 | %400
"^I""^tranquillo"!pp![Q:1/2=92] (e8 | d4 B2 d2) | (d4 c4- | c4 G4 |!<(! B8)!<)! |!>(! (c4!>)! d4) | %406
 B8 |!<(!!>(! (c2!<)!!>)! e4 d2) |!<(! B8!<)! |!>(! (c2!>)! g2{ef} e2 d2) | .c4 B4- | B4 z4 | z8 | %413
 z8 | z8 | z8 |!pp! (b8 | _a4 f2 a2) | (_a4 _g4- | g4 _d4 |!<(! f8)!<)! |!>(! (_g4!>)! _a4) | %422
!<(! f8!<)! |!>(! (_g2!>)! b4 a2) |!<(! f8!<)! |!>(! (_g2!>)! _d'2{bc'} b2 a2) | ._g4 f4- | f4 z4 | %428
 z8 | z8 | z8 | z8 |"^K""^animato"!pp![Q:1/2=120] F4 (E2 CE) | !>!.E2 D4 z2 | !>!.G2 F4 z2 | %435
 !>!.E2 D4 z2 |"_poco a poco cresc." _A4 (G2 EG) | !>!.G2 F4 z2 | !>!.B2 _A4 z2 | !>!.G2 F4 z2 | %440
 (cB).G.B !>!.B2 _A2 | (ed).B.d !>!.d2 c2 | (_ag)(.e.g) .f.d.f.e | .c.e.d.B .d.c._A.c | %444
 (BG)(.B._A) .F.A.G.E |"_dim." .G.F.D.F .E.C.E.D | .B,.D.C._A, .D.C.A,.D | .C._A,.D.C .A,.D.C.A, | %448
 z!p! ._D._C._A, .D.C!>(!.A,.D | ._C._A,._D.C .A,.D.C.A,!>)! |"^L" z2!pp! =e4 f2- | %451
 f2!<(! (g2 _a2!<)! f'2) |!>(! (f'8!>)! | _a4) z4 | z2 g4 _a2- | a2!<(! (b2 c'2!<)! _a'2) | %456
!>(! (_a'8!>)! | c'4) z4 | (3z2!<(! =e2 f2 (3(g2 _a2!<)! f'2) |!>(! (f'4 _a2)!>)! z2 | %460
 (3z2!<(! g2 _a2 (3(b2 c'2!<)! _a'2) |!>(! (_a'4 c'2)!>)! z2 | z!<(! (=ef!<)!f') (!>!f'4 | %463
 f')!<(!(g_a_a')!<)!!f! !>!a'4- | a'2!<(! _a'4 =a'2- | a'2 b'4!<)! =b'2- | b'2 c''2 c''4- | %467
 c''4- (c''b'_a'g') | (3(f'e'd' (3c'b_a (3gfe (3dcB | %469
 _A/G/F/E/ D/E/F/G/ (6:4:6A/B/c/d/e/f/ (7:4:7g/_a/b/c'/d'/e'/f'/) | %470
!ff! (!tenuto!g'4 !tenuto!f'2) .d'.f' | !>!.f'2 e'4 d'2 | (!tenuto!c'4 !tenuto!b2) .g.b | %473
 !>!.b2 _a4 (g2- |"_dim." g2) f4 (e2- | e2) d4 ((c2 | c2) B4) c2 | (B2 (_A2 (3A2)) c2 B2 | %478
 (_A2 G4) A2 | (G2 F4) G2 | (F2 (E2 (3E2)) G2 F2 | (E2 D4) E2 | %482
"^M"!pp! (D2 (C2 (3C2))!<(! c2!<)! B2 | (B2 _A4 (G2- | G2) F4 E2) | (E2 (D2 (3D2))!<(! d2 c2!<)! | %486
"_cresc." (c2 B4 _A2- | A2 G4 F2) | (F2 (=E2 (3E2))!<(! =e2 d2!<)! |!f! (!>!d2 c4 ._e2) | %490
 (B2 A4) G2 |"_dimin. e sempre ritard." (!>!G2 ^F4) c2 | (E2 D4) A2 | (G2 ^F4) c2 | (E2 D4) A2 | %495
!p! (C2 B,4 (G2) |!>(! (G2) A,4 G2)!>)! |"^N" z2!pp! (DG) z2 (DG)[Q:1/4=200]"^a tempo" | %498
 z2 (EG) z2 (EG) | z2 (E_A) z2 (EA) | z2 (FA) z2 (FA) | z2 (FB) z2"_cresc." (G=B) | %502
 z2 (Gc) z2 (A^c) | z2 d4 (=f2- |!<(! f2) e4!<)! d2 |!mf! (g4 !tenuto!f2) .d.f | !>!.d2 e4 e2 | %507
"_cresc. sempre" (_a4 !tenuto!g2) .e.g | !>!.=e2 f4 f2 | !>!b2 !>!_a2 !>!^f2 !>!g2 | %510
"^rit." !>!c'2 !>!b2 !>!^g2 !>!=a2 |!f! !>!^c'2 !>!d'2 !>!f'2 !>!e'2 | %512
 !>!d'2 !>!^c'2 !>!=c'2 !>!a2 | %513
"^O"[Q:1/4=200]"^a tempo, \nanimato \ne stretto\n" (!tenuto!g4 !tenuto!f2) df | !>!.e2 d4 z2 | %515
 (!tenuto!c4 !tenuto!B2) GB | !>!.A2 G4 z2 | z8 | z4 z2!pp! GB |"_cresc. molto" .A2 .G2 .A2 .G2 | %520
 .a2 .g2 .a2 .g2 |"^P" z4!f! [Bg]4- | [Bg]4 [Bg]4- | [Bg]4!<(! [Bg]4 | ([Bg]4!<)! !tenuto![Bg]4) | %525
[Q:1/2=92] !>!c'8 | !>!b4 !>!g2 !>!b2 | .b4!<(! ((a4- | a4)!<)! ^f4) | g8- | g8- | %531
!<(! g4 (!tenuto!g4!<)! | !tenuto!g4 !tenuto!g4) |!ff! !>![Gg]8 | !>![Ff]4 !>![Dd]2 !>![Ff]2 | %535
 .[Ff]4!>(! ([Ee]4- | [Ee]4 [Dd]4)!>)! |"^Q" z4!p! G4- | G4 G4- | G4 (!tenuto!G4 | %540
!>(! !tenuto!G4 !tenuto!G4)!>)! |!ppp!"^più tranquillo" (!>!c8 | B4 G2 B2) | (B4 (A4- | A4) ^F4) | %545
 !>!G8- | G8- | G4 (!tenuto!G4 | !tenuto!G4 !tenuto!G4) | (G8 | =F4 D2 F2) | .F4 (E4- | E4 D4) | %553
"^G. P." z8 | z8 | z8 | z8 |"^G. P." z8 | z8 || %559
[K:G]"^R""^tremolo""_sul ponticello"!pp!"^Più mosso" !///![GB]8 | !///![GB]8 | !///![GB]8 | %562
 !///![GB]8 | !///![GB]8 | !///![GB]8 | !///![GB]8 | !///![GB]8 | !///![GB]8 | !///![GB]8 | %569
 !///![GB]8 | !///![GB]8 |!<(! !///![DB]8 | !///![DB]8!<)! |!>(! !///![Ec]8 | !///![_Ec]8!>)! | %575
!<(! !///![DB]8 | !///![DB]8!<)! |!>(! !///![Ec]8 | !///![_Ec]8!>)! |!<(! !///![DB]8 | %580
 !///![DB]8!<)! |!>(! !///![Ec]8 | !///![_Ec]8!>)! | !///![DB]8 | !///![DB]8 | !///![DB]8 | %586
 .[DB]2 z2 z4 | z8 | z8 | z8 | z8 |!ppp! !///![D_B]8 | !///![D_B]8 | !///![D_B]8 | .[D_B]2 z2 z4 | %595
 z8 | z8 | z8 | !fermata!z8 ||[K:Bb]"_al ordinario"!ff!"^Presto"[Q:1/2=144] !>!g4 (!>!^f2 df) | %600
 !>!.=f2 !>!.=e2 z2 z2 | !>!_e4 (!>!d2 Bd) | !>!.d2 !>!.d2 z4 |!sfz! !>!g2 !>!^f2 !>!=f2 !>!=e2 | %604
 !>!_e2 !>!d2 !>!d2 !>!d2 |!sfz! gg^ff =ff=ee | _ee!<(!dd ddd!<)!d | %607
!sfz![Q:1/4=187]"^Prestissimo" gg^ff ddff | =ff_dd ff=ee | cc=ee _ee=BB | eedd _BBdd | %611
!sfz!"^poco rit." [A=e]4- [Ae]2 z2 |!sfz! [A^f]4- [Af]2 z2 |!sfz!!<(!!<(! [Bg]8-!<)! | [Bg]8- | %615
 .[Bg]2!<)! z4 z2 |] %616
V:2
 [G,D]2 x6 | x8 | x8 | x8 | A,2 x6 | x8 | x8 | x8 | D8- | D8 | x8 | x8 | x8 | x8 | x8 | x8 || x8 | %17
 x8 | x8 | x8 | x8 | x8 | x8 | x8 | x8 | x8 | x8 | x8 | x8 | x8 | x8 | x8 | x8 | x2 D2 x4 | x8 | %35
 x8 | x8 | x2 D2 x4 | x8 | x8 | x8 | x8 | x8 | x8 | [G,Dd]2 x6 | x8 | x8 | x8 | x8 | x8 | x8 | x8 | %52
 x8 | x8 | x8 | x8 | x8 | x8 | x8 | x8 | x8 | x8 | x8 | x8 | x8 | x8 | x8 | x8 | x8 | x8 | x8 | %71
 x8 | x8 | x8 | x8 | x8 | x8 | x8 | x8 | x8 | x8 | x8 | x8 | x8 | x8 | x8 | x8 | x8 | x8 | x8 | %90
 x8 | x8 | x8 | x8 | x8 | x8 | x8 | x8 | x8 | x8 | x8 | x8 | x8 | x8 | x8 | x8 | x8 | x8 | x8 | %109
 x8 | x8 | x8 | x8 | x8 | x8 | x8 | x8 | x8 | x8 | x8 | x8 | x8 | x8 | x8 | x8 | x8 | x8 | x8 | %128
 x8 | x8 | x8 | x8 | x8 | x8 | x8 | x8 | x8 | x8 | x8 | x8 | x8 | x8 | x8 | x8 | x8 | x8 | x8 | %147
 x8 | x8 | x8 | x8 | x8 | x8 | x8 | x8 | x8 | x8 | x8 | x8 | x8 | x8 | x8 | x8 | x8 | x8 | x8 | %166
 x8 | x8 | x8 | x8 | x8 | x8 | x8 | x8 | x8 | x8 | x8 | x8 | x8 | x8 | x8 | x8 | x8 | x8 | x8 | %185
 x8 | x8 | x8 | x8 | x8 | x8 | x8 | x8 | x8 | x8 | x8 | x8 | x8 | x8 | x8 | x8 | x8 | x8 | x8 | %204
 x8 | x8 | x8 | x8 | x8 | x8 | x8 | x8 | x8 | x8 | x8 | x8 | x8 | x8 | x8 | x8 | x8 | x8 | x8 | %223
 x8 | x8 | x8 | x8 | x8 | x8 | x8 | x8 | x8 | x8 | x8 | x8 | x8 | x8 | x8 | x8 | x8 | x8 | x8 | %242
 x8 | x8 | x8 | x8 | x8 | x8 | x8 | x8 | x8 | x8 | x8 | x8 | x8 | x8 | x8 | x8 | x8 | x8 | x8 | %261
 x8 | x8 | x8 | x8 | x8 | x8 | x8 | x8 | x8 | x8 | x8 | x8 | x8 | x8 | x8 | x8 | x8 | x8 | x8 | %280
 x8 | x8 | x8 | x8 | x8 | x8 | x8 | x8 | x8 | x8 | x8 | x8 | x8 | x8 | x8 | x8 | x8 | x8 | x8 | %299
 x8 | x8 | x8 | x8 | x8 | x8 | x8 | x8 | x8 | x8 | x8 | x8 | x8 | x8 | x8 | x8 | x8 | x8 | x8 | %318
 x8 | x8 | x8 | x8 | x8 | x8 | x8 | x8 | x8 | x8 | x8 | x8 | x8 | x8 | x8 | x8 | x8 | x8 | x8 | %337
 x8 | x8 | x8 | x8 | x8 | x8 | x2 D2 x4 | x8 | x8 | x8 | x8 | x8 | x8 | [G,Dd]2 x6 | x8 | x8 | x8 | %354
 x8 | x8 | x8 | x8 | x8 | x8 | x8 | x8 | x8 | x8 | x8 | x8 | x8 | x8 | x8 | x8 | x8 | x8 | x8 | %373
 x8 | x8 | x8 | x8 | x8 | x8 | x8 | x8 | x8 | x8 | x8 | x8 | x8 | x8 | x8 | x8 | x8 | x8 | x8 | %392
 x8 | x8 | x8 | x8 | x8 | x8 | x8 | x8 | x8 | x8 | x8 | x8 | x8 | x8 | x8 | x8 | x8 | x8 | x8 | %411
 x8 | x8 | x8 | x8 | x8 | x8 | x8 | x8 | x8 | x8 | x8 | x8 | x8 | x8 | x8 | x8 | x8 | x8 | x8 | %430
 x8 | x8 | x8 | x8 | x8 | x8 | x8 | x8 | x8 | x8 | x8 | x8 | x8 | x8 | x8 | x8 | x8 | x8 | x8 | %449
 x8 | x8 | x8 | x8 | x8 | x8 | x8 | x8 | x8 | x8 | x8 | x8 | x8 | x8 | x8 | x8 | x8 | x8 | x8 | %468
 x8 | x8 | x8 | x8 | x8 | x8 | x8 | x8 | x8 | x8 | x8 | x8 | x8 | x8 | x8 | x8 | x8 | x8 | x8 | %487
 x8 | x8 | x8 | x8 | x8 | x8 | x8 | x8 | x8 | x8 | x8 | x8 | x8 | x8 | x8 | x8 | x8 | x8 | x8 | %506
 x8 | x8 | x8 | x8 | x8 | x8 | x8 | x8 | x8 | x8 | x8 | x8 | x8 | x8 | x8 | x8 | x8 | x8 | x8 | %525
 [G,G=e]4 x4 | x8 | x8 | x8 | x8 | x8 | x8 | x8 | x8 | x8 | x8 | x8 | x8 | x8 | x8 | x8 | x8 | x8 | %543
 x8 | x8 | x8 | x8 | x8 | x8 | x8 | x8 | x8 | x8 | x8 | x8 | x8 | x8 | x8 | x8 ||[K:G] x8 | x8 | %561
 x8 | x8 | x8 | x8 | x8 | x8 | x8 | x8 | x8 | x8 | x8 | x8 | x8 | x8 | x8 | x8 | x8 | x8 | x8 | %580
 x8 | x8 | x8 | x8 | x8 | x8 | x8 | x8 | x8 | x8 | x8 | x8 | x8 | x8 | x8 | x8 | x8 | x8 | x8 || %599
[K:Bb] x8 | x8 | x8 | x8 | x8 | x8 | x8 | x8 | x8 | x8 | x8 | x8 | x8 | x8 | x8 | x8 | x8 |] %616
V:3
!f! !>![Bd]8 | !>!f4 !>!d2 !>!f2 | !>!f4 (!>!e4- | e4 !>!B4) | !>![FA]8- |!>(! [FA]8-!>)! | %6
 [FA]4 (!tenuto!D4 |!<(! !tenuto!D4 !tenuto!D4)!<)! | [EG]8- | [EG]8- |!>(! ([EG]8!>)! | A,8) | %12
!p!!>(! B,8-!>)! | B,4 !fermata!z4 |!pp!!>(! A,8-!>)! | A,4 !fermata!z4 || %16
!pp! (B,G,B,G, B,G,B,G,) | (!/-!B,2 G,2 !/-!B,2 G,2) | (!/-!B,2 G,2 !/-!B,2!<(! G,2)!<)! | %19
!>(! (!/-!B,2!>)! G,2 !/-!B,2 G,2) | (!/-!D2 B,2 !/-!D2 B,2) | (!/-!D2 B,2 !/-!D2 B,2) | %22
 (!/-!D2 B,2!<(! !/-!D2 B,2)!<)! |!>(! (!/-!D2 B,2!>)! !/-!D2 B,2) | %24
 (!/-!^F2 D2!<(! !/-!F2 D2)!<)! |!>(! (!/-!A2 ^F2)!>)! (!/-!F2 D2) | %26
"_cresc." (!/-!A2 G2!<(! !/-!A2 G2)!<)! |!>(! (!/-!c2 A2)!>)! (!/-!A2 G2) | %28
 (!/-!!>!c2 A2) (!/-!A2 G2) | (!/-!!>!c2 A2) (!/-!A2 G2) | (!/-!!>!e2 c2) (!/-!c2 A2) | %31
 (!/-!!>!e2 c2) (!/-!c2 A2) |!sfz! [Aa]8 | .[Aa]2 !>![Aa]6 | %34
!p! (!/-!!>!e2 ^c2)"_cresc." (!/-!c2 A2) | ((!/-!!>!e2 ^c2)) ((!/-!c2 A2)) |!sfz! [Aa]8 | %37
 .[Aa]2 !>![Aa]6 |!f! [Aa]4 .[Aa]2 !>![Aa]2 |!f! [Aa]4 .[Aa]2 !>![Aa]2 | !>![Aa]4 !>![Aa]4 | %41
 !>![Aa]4 !>![Aa]4 |!sfz! [Aa]2 [Aa]2 [Aa]2 [Aa]2 |"_sost."!<(! [Aa]2 [Aa]2 [Aa]2 [Aa]2!<)! | %44
!ff! [DBb]2 .[Bb].[Bb] [Bb]4- | [Bb]2 .[Bb].[Bb] [Bb]4- | [Bb]2 v[Bb]4 [Bb]2- | [Bb]2 [Bb]4 [Bb]2 | %48
 !>![DBb]2 v[DBb]4 [Bb]2 | [DBb]2 [Bb]2 [Bb]2 [Bb]2 | (3!>![DBb]2 [Bb]2 [Bb]2 (3[Bb]2 [Bb]2 [Bb]2 | %51
!<(! [DBb][Bb][Bb][Bb] [Bb][Bb][Bb][Bb]!<)! | [Dcc']2 .[cc'].[cc'] [cc']4- | %53
 [cc']2 .[cc'].[cc'] [cc']4- | [cc']2 v[cc']4 [cc']2- | [cc']2 [cc']4 [cc']2 | %56
 !>![Dcc']2 v[Dcc']4 [cc']2 | [Dcc']2 [cc']2 [cc']2 [cc']2 | %58
 (3!>![Dcc']2 [cc']2 [cc']2 (3[cc']2 [cc']2 [cc']2 | %59
!<(! [Dcc'][cc'][cc'][cc'] [cc'][cc'][cc'][cc']!<)! | !>!_a4 !>!g4 | !>!^f4 !>!=f4 | %62
 !>!=e4 !>!_e4 | !>!d4 !>!^c4 | z4!sfz! g4- | g4 ^f4 | !>!d4 !>!^c4 | !>!c4 !>!=B4 | !>!B4 !>!A4 | %69
 !>!_A4 !>!G4 |!pp! (3.[G=B]2 .[GB]2 .[GB]2 (3.[GB]2 .[GB]2 .[GB]2 | %71
 (3.[G=B]2 .[GB]2 .[GB]2 (3.[GB]2 .[GB]2 .[GB]2 | %72
 (3.[GB]2 .[GB]2"_cresc." .[GB]2 (3.[GB]2 .[GB]2 .[GB]2 | %73
 (3.[GB]2 .[GB]2 .[GB]2 (3.[GB]2 .[GB]2 .[GB]2 | %74
"_molto" (3.[GA]2 .[GA]2 .[GA]2 (3.[GA]2 .[GA]2 .[GA]2 | %75
 (3.[GA]2 .[GA]2 .[GA]2 (3.[GA]2 .[GA]2 .[GA]2 | (3.[^Fc]2 .[Fc]2 .[Fc]2 (3.[Fc]2 .[Fc]2 .[Fc]2 | %77
 (3.[^Fc]2 .[Fc]2 .[Fc]2 (3.[Fc]2 .[Fc]2 .[Fc]2 |!ff! !>![G=e]8 | !>![Ge]8 | !>![G=e]8 | !>![Ge]8 | %82
 !>![G=e]4 !>![G_e]4 | !>![G=e]4 !>![G_e]4 | !>![G=e]2 !>![G_e]2 !>![G=e]2 !>![G_e]2 | %85
 !>![G=e]2 !>![G_e]2 !>![G=e]2 !>![G_e]2 | .[Dd]2 [Dd][Dd] .[Dd]2 [Dd][Dd] | %87
 .[Dd]2 [Dd][Dd] .[Dd]2 [Dd][Dd] | z2 !>!g4 !>!^f2 | (!>!d4 !>!B4) | .uG.D!<(! G,6- | G,8- | %92
 .[G,DBg]4!<)! z4 | z8 | [Bd]8- |!pp! [Bd]8 | [Bd]8- | [Bd]8- |!<(! [Bd]8!<)! |!>(! [Bd]8!>)! | %100
!<(! c8!<)! |!>(! [Bd]8!>)! |!<(! c8!<)! |!>(! [Bd]8!>)! | c8- | c4 z4 | z8 | z8 | z8 | z8 | %110
!pp! [F_A]8- | [FA]8 | [F_A]8- | [FA]8- |!<(! [FA]8!<)! |!>(! [F_A]8!>)! |!<(! G8!<)! | %117
!>(! [F_A]8!>)! |!<(! G8!<)! |!>(! [F_A]8!>)! | G8- | G4 z4 | z8 | z8 | z8 | z8 |!pp! [EG]4 [EG]4 | %127
 .[EG]2 [EG]4 z2 | .[EG]2 [EG]4 z2 | .[EG]2 [EG]4 z2 |"_cresc." [GB]4 [GB]4 | .[GB]2 [GB]4 z2 | %132
 .[GB]2 [GB]4 z2 | .[GB]2 [GB]4 z2 | z4 .B2 B2 | z4 .e2 .e2 | z4!sfz! .[EBg]2 z2 | z8 | %138
 z4"^pizz."!sfz! [G,EB]2 z2 | z8 | z8 | z8 | z8 | z8 |"^arco"!pp! !/!!>![C_G]4 !/![CG]4 | %145
 !/!!>![CG]4 !/![CG]4 | !/!!>![C_A]4!<(! !/![CA]4 | !/!!>![CA]4 !/![CA]4!<)! | %148
!>(! !/!!>![CB]4 !/![CB]4 | !/!!>![CA]4 !/![CA]4!>)! | !/!!>![C_A]4 !/![CA]4 | %151
 !/!!>![CG]4 !/![CG]4 |"_cresc." !/!!>![C_G]4 !/!!>![C=G]4 | !/!!>![C_A]4 !/!!>![C=A]4 | %154
 !/!!>![CB]4 !/!!>![CA]4 | !/!!>![C_A]4 !/!!>![CG]4 | %156
 !/!!>![C_G]2 !/!!>![C=G]2 !/!!>![C_A]2 !/!!>![C=A]2 | %157
 !/!!>![CB]2 !/!!>![CA]2 !/!!>![C_A]2 !/!!>![CG]2 |!f! !/!!>![C_G]4!<(! !/!!>![CG]4 | %159
 !/!!>![C_G]4!<)! !/!!>![CG]4 | z4 [CG]4- | [CG]8- | [CG]2 z2 z4 | z8 | %164
!ff! (f4"_marcato" !tenuto!f2) .f.f | .f2 f4 d2 | (B4 !tenuto!B2) .B.B | .B2 B4 G2- | %168
"_dim. ed un poco rit." G2 G4 E2- | E2 E4 C2- | C4 B,4- | B,4 A,4 | B,8- | B,8 | %174
 z2!p! (B,D) z2 (B,D) | z2 (=B,D) z2 (B,D) | z2 (CE) z2 (CE) | z2 (^C=E) z2 (CE) | %178
 z2"_cresc." (DF) z2 (DF) | z2 (EG) z2 (=EG) | z2 !>!c4 !>!c2- | c2 !>!^c4 .c2 | %182
 (3z2!f! [Fd]2 [Fd]2 (3[Fd]2 [Fd]2 [Fd]2 | (3z2 [Gd]2 [Gd]2 (3[Gd]2 [Gd]2 [Gd]2 | %184
 (3z2 [Ge]2 [Ge]2 (3[Ge]2 [Ge]2 [Ge]2 | (3z2 [A=e]2 [Ae]2 (3[Ae]2 [Ae]2 [Ae]2 | %186
 (3z2!f! [Af]2 [Af]2 (3z2 [Bf]2 [Bf]2 | (3z2"_rit." [Bg]2 [Bg]2 (3z2 [cg]2 [cg]2 | %188
 z2 !>![ca]4 !>![ca]2- | [ca]2 !>![ca]2 !>![ca]2 !>![ca]2 | ([Bb]4!ff! !tenuto![Bb]4) | %191
 .[Bb]2 [Bb]4 z2 | ([Ff]4 !tenuto![Ff]4) | .[Ff]2 [Ff]4 z2 | z4 z2!pp! B,D | %195
 .C2 B,4"_cresc. molto" B,D | .C2 .B,2 .C2 .B,2 | .c2 .B2 .c2 .B2 | z4!ff! [Bf]4- | [Bf]4 [Bf]4- | %200
 [Bf]4 [Bf]4- | [Bf]4 z4 | z4"_lentamente" !>![Bf]4- | [Bf]4 !>![Bf]4- | [Bf]4 !>![Bf]4- | %205
 !fermata![Bf]4 z4 |!pp! (_DB,DB, DB,DB,) | (_DB,DB, DB,DB,) | (_DB,DB, DB,!<(!DB,)!<)! | %209
!>(! (_DB,!>)!DB, DB,DB,) | z8 |!p! (_G8 | _D8) | (_G8 |!<(! _G8)!<)! | z2!pp! [B,G]6 | z2 [B,G]6 | %217
 z2 [B,G]6 | z2 [B,G]6- |"_cresc." [B,G]2 [B,G]4 [B,G]2- | [B,G]2 [B,G]4 [B,G]2- | %221
 [B,G]2 .[B,G]2 .[B,G]2 .[B,G]2 |"_poco rit." .[B,G]2 .[B,G]2 .[B,G]2 .[B,G]2 | [=EG]8- | %224
!<(! [EG]8!<)! |!>(! [=EG]8-!>)! | [EG]8 |!pp! (D=B,DB, DB,DB,) | (D=B,DB, DB,DB,) | %229
 (D=B,DB, DB,!<(!DB,)!<)! |!>(! (D=B,!>)!DB, DB,DB,) | z8 | (G8 | D8) | G8- |!<(! G8!<)! | %236
 z2!pp! [F^G]6 | z2 [F^G]6 | z2 [F^G]6 | z2 [F^G]6- |"_cresc." [FG]2 [F^G]4 [FG]2- | %241
 [FG]2 [F^G]4 [FG]2- | [FG]2 .[F^G]2 .[FG]2 .[FG]2 |"_poco rit." .[F^G]2 .[FG]2 .[FG]2 .[FG]2 | %244
 [F_A]8- |!<(! [FA]8!<)! |!>(! [F_A]8-!>)! | [FA]8 | z2!ff! !>![CG]2- [CG]!<(!.[DG].[DG].[EG]!<)! | %249
 z2 !>![CG]2- [CG]!<(!.[DG].[DG].[EG]!<)! | .[CG]2 v[DG]4 [EG]2- | [EG]2 [DG]4 .[CG]2 | %252
 z2!pp! .G2 (!>!E2 C2) | z2 .G2 (!>!E2 C2) | z2"_cresc. molto" .G2 (!>!=E2 ^C2) | %255
 z2 .G2 (!>!=E2 ^C2) |!ff! z2 !>![^C^G]2-!<(! [CG].[EG].[EG].[=EG]!<)! | %257
 z2 !>![^C^G]2-!<(! [CG].[EG].[EG].[=EG]!<)! | .[^C^G]2 v[EG]4 [=EG]2- | [EG]2 [_E^G]4 .[^CG]2 | %260
 z2!pp! .^G2 (!>!=E2 ^C2) | z2 .^G2 (!>!=E2 ^C2) | z2"_cresc. molto" .^G2 (!>!F2 D2) | %263
 z2 .^G2 (!>!F2 D2) | z2!ff! !>![DA]2- [DA]!<(!.[=EA].[EA].[FA]!<)! | z8 | z2!pp! .A2 (F2 D2) | %267
 z2!ff!!ff! !>![EA]2-!<(! [EA].[=EA].[EA].[^FA]!<)! | z8 | z2!pp! A2 (_G2 E2) | z2 B2 (_G2 E2) | %271
 z2!<(! _c2 (_G2 E2)!<)! | z2 c2 (_G2 E2) | z2!>(! c2 (_G2 E2)!>)! | z2!pp! c2 (_G2 E2) | %275
 z2 c2 (_G2 E2) | z2 c2 (_G2 E2) | z2 c2 (_G2 E2) | z2 c2 (_G2 E2) | z2 c2 (_G2 E2) | %280
 z2 c2 (_G2 E2) | z2 c2 (_G2 E2) | z2 c2 (_G2 E2) | z2 c2 (_G2 E2) | z2 A2 (E2 C2) | %285
 z2 A2 (E2 C2) | z2 A2 (E2 C2) | z2 A2 (E2 C2) | z2 A2 (E2 C2) | z2 A2 (E2 C2) | z2 A2 (E2 C2) | %291
 z2 A2 (E2 C2) | z2 A2 (E2 C2) | z2 A2 (E2 C2) | z2 A2 (E2 C2) | z2 A2 (E2 C2) | z8 | %297
 z2 _A2 (E2 C2) |"_poco riten." z8 | z4 _A4 | (E4 C4) | z8 |!ppp! v_A,8- | A,8 | !tenuto!_A,8- | %305
 !tenuto!A,8 | (!>!_A,4 =A,4) | (.A,4 ._C4) | _A,8- | A,8 | (_A,8 | G,8 | _A,4) A,4 | %313
!<(! (!tenuto!_A,4 !tenuto!A,4)!<)! | (!>!_A,2 =A,2) .A,2 ._C2 |!<(! (_C2 _D2) .D2 .E2!<)! | %316
!>(! (E2 _D2) .D2 ._C2!>)! | (_C4 _A,4) | _A,8- | A,4 (3(._A,2 .A,2 .A,2) | %320
"_rit. molto"!<(! _A,4 G,4 | B,4 _A,4!<)! |!>(! _A,8- | A,8 | G,8- | G,8!>)! | %326
!ppp! (B,G,B,G, B,G,B,G,) | (!/-!B,2 G,2 !/-!B,2 G,2) | (!/-!B,2 G,2 !/-!B,2!<(! G,2)!<)! | %329
!>(! (!/-!B,2!>)! G,2 !/-!B,2 G,2) | (!/-!D2 B,2 !/-!D2 B,2) | (!/-!D2 B,2 !/-!D2 B,2) | %332
 (!/-!D2 B,2 !/-!D2!<(! B,2)!<)! |!>(! (!/-!D2!>)! B,2 !/-!D2 B,2) | %334
"_cresc." (!/-!^F2 E2 !/-!F2!<(! E2)!<)! |!>(! (!/-!A2!>)! ^F2) (!/-!F2 E2) | %336
 (!/-!A2 G2 !/-!A2!<(! G2)!<)! |!>(! (!/-!c2 A2)!>)! (!/-!A2 G2) | %338
!>(! (!/-!c2 A2)!>)! (!/-!A2 G2) |!>(! (!/-!c2 A2)!>)! (!/-!A2 G2) | %340
!>(! (!/-!e2 c2)!>)! (!/-!c2 A2) |!>(! (!/-!e2 c2)!>)! (!/-!c2 A2) |!sfz! [Aa]8 | .[Aa]2 !>![Aa]6 | %344
!f! [Aa]4 .[Aa]2 !>![Aa]2 | [Aa]4 .[Aa]2 !>![Aa]2 |!f! !>![Aa]4 !>![Aa]4 | !>![Aa]4 !>![Aa]4 | %348
 !>![Aa]2 [Aa]2 [Aa]2 [Aa]2 |"_sost." !>![Aa]2 [Aa]2 [Aa]2 [Aa]2 |!ff! [DBb]2 .[Bb].[Bb] [Bb]4- | %351
 [Bb]2 .[Bb].[Bb] [Bb]4- | [Bb]2 v[Bb]4 [Bb]2- | [Bb]2 [Bb]4 [Bb]2 | !>![DBb]2 v[DBb]4 [Bb]2 | %355
 !>![DBb]2 [Bb]2 [Bb]2 [Bb]2 | (3!>![DBb]2 [Bb]2 [Bb]2 (3[Bb]2 [Bb]2 [Bb]2 | %357
!<(! !>![DBb][Bb][Bb][Bb] [Bb][Bb][Bb][Bb]!<)! | [Dcc']2 .[cc'].[cc'] [cc']4- | %359
 [cc']2 .[cc'].[cc'] [cc']4- | [cc']2 v[cc']4 [cc']2- | [cc']2 [cc']4 [cc']2 | %362
 !>![Dcc']2 v[Dcc']4 [cc']2 | !>![Dcc']2 [cc']2 [cc']2 [cc']2 | %364
 (3!>![Dcc']2 [cc']2 [cc']2 (3[cc']2 [cc']2 [cc']2 | %365
!<(! !>![Dcc'][cc'][cc'][cc'] [cc'][cc'][cc'][cc']!<)! | !>!_a4 !>!g4 | !>!^f4 !>!=f4 | %368
 !>!=e4 !>!_e4 | !>!d4 !>!^c4 | z4!sfz! g4- | g4 ^f4 | !>!d4 !>!^c4 | !>!c4 !>!=B4 | !>!B4 !>!A4 | %375
 !>!_A4 !>!G4 |!pp! (3.[G=B]2 .[GB]2 .[GB]2 (3.[GB]2 .[GB]2 .[GB]2 | %377
 (3.[G=B]2 .[GB]2 .[GB]2 (3.[GB]2 .[GB]2 .[GB]2 | %378
"_cresc. molto e stretto" (3.[GB]2 .[GB]2 .[GB]2 (3.[GB]2 .[GB]2 .[GB]2 | %379
 (3.[GB]2 .[GB]2 .[GB]2 (3.[GB]2 .[GB]2 .[GB]2 | (3.[GA]2 .[GA]2 .[GA]2 (3.[GA]2 .[GA]2 .[GA]2 | %381
 (3.[GA]2 .[GA]2 .[GA]2 (3.[GA]2 .[GA]2 .[GA]2 | (3.[^Fc]2 .[Fc]2 .[Fc]2 (3.[Fc]2 .[Fc]2 .[Fc]2 | %383
 (3.[^Fc]2 .[Fc]2 .[Fc]2 (3.[Fc]2 .[Fc]2 .[Fc]2 |!ff! !>![G=e]8 | !>![Ge]8 | !>![G=e]8 | !>![Ge]8 | %388
 !>![G=e]4 !>![G_e]4 | !>![G=e]4 !>![G_e]4 | !>![G=e]2 !>![G_e]2 !>![G=e]2 !>![G_e]2 | %391
 !>![G=e]2 !>![G_e]2 !>![G=e]2 !>![G_e]2 | !>!.[Dd]2 [Dd][Dd] !>!.[Dd]2 [Dd][Dd] | %393
 !>!.[Dd]2 [Dd][Dd] !>!.[Dd]2 [Dd][Dd] | z2 !>!g4 !>!^f2 | (!>!d4 !>!B4) | !>!.uG.D!<(! G,6- | %397
 G,8- | .[G,DBg]4!<)! z4 | z8 |!pp! [EG]8- | [EG]8 | [EG]8- | [EG]8- |!<(! [EG]8!<)! | %405
!>(! [EG]8!>)! |!<(! F8!<)! |!>(! [EG]8!>)! |!<(! F8!<)! |!>(! [EG]8!>)! | F8- | F4 z4 | z8 | z8 | %414
 z8 | z8 |!pp! [B_d]8- | [Bd]8 | [B_d]8- | [Bd]8- |!<(! [Bd]8!<)! |!>(! [B_d]8!>)! |!<(! c8!<)! | %423
!>(! [B_d]8!>)! |!<(! c8!<)! |!>(! [B_d]8!>)! | c8- | c4 z4 | z8 | z8 | z8 | z8 | %432
"^animato"!pp! _A,4 A,4 | !>!._A,2 A,4 z2 | !>!._A,2 A,4 z2 | !>!._A,2 A,4 z2 | %436
"_poco a poco cresc." [CE]4 [CE]4 | !>!.[CE]2 [CE]4 z2 | !>!.[CE]2 [CE]4 z2 | !>!.[CE]2 [CE]4 z2 | %440
 z4 !>!.E2 .E2 | z4 !>!._A2 .A2 | z4!sfz! [ec']2 z2 | z8 | z4"^pizz."!sfz! [_A,Ec]2 z2 | z8 | z8 | %447
 z8 | z8 | z8 |!pp!"^arco" !/!!>![F=B]4 !/![FB]4 | !/!!>![Fc]4 !/![Fc]4 | %452
!<(! !/!!>![F_d]4 !/![Fd]4 | !/!!>![Fd]4 !/![Fd]4!<)! |!>(! !/!!>![Fe]4 !/![Fe]4 | %455
 !/!!>![Fd]4 !/![Fd]4!>)! | !/!!>![F_d]4 !/![Fd]4 | !/!!>![Fc]4 !/![Fc]4 | %458
 !/!!>![F=B]4 !/!!>![Fc]4 |"_cresc." !/!!>![F_d]4 !/!!>![F=d]4 | !/!!>![Fe]4 !/!!>![Fd]4 | %461
 !/!!>![F_d]4 !/!!>![Fc]4 | !/!!>![F=B]2 !/!!>![Fc]2 !/!!>![F_d]2 !/!!>![F=d]2 | %463
 !/!!>![Fe]2 !/!!>![Fd]2 !/!!>![F_d]2 !/!!>![Fc]2 |!f! !/![F=B]4!<(! !/![F_B]4 | %465
 !/![F=B]4!<)! !/![F_B]4 | z4 [Fc]4- | [Fc]8- | [Fc]2 z2 z4 | z8 | %470
!ff! (!tenuto!b4 !tenuto!b2) .b.b | !>!.b2 b4 g2 | (!tenuto!e4- !tenuto!e2) .e.e | !>!.e2 e4 (c2- | %474
"_dim." c2) _A4 A2- | A2 _A4 (F2- | F4) (_E4- | E4) (D4- | D4) (C4- | C4) (B,4- | B,4) (_A,4- | %481
 A,4) G,4 |!pp! (_A,4 B,4) | (C8- | C4 _A,4) |"_cresc." (B,4 C4) | ((_D8- | D4) B,4) | (C4 =D4) | %489
!f! ((!>!E8 | E4) ^C4) |"_dimin. e sempre ritard." =C8 | A,8 | C8 | A,8 |!p! (G,8 |!>(! G,8)!>)! | %497
 z2!pp! (G,B,) z2 (G,B,) | z2 (G,B,) z2 (G,B,) | z2 (_A,C) z2 (A,C) | z2 (=A,C) z2 A,C | %501
 z2 B,D z2"_cresc." (=B,D) | z2 (CG) z2 (^CG) | z2 [=C^F]4!<(! [CF]2- | [CF]2 [C^F]4 [CF]2!<)! | %505
 (3z2!mf! [DB]2 [DB]2 (3[DB]2 [DB]2 [DB]2 | (3z2 [EB]2 [EB]2 (3[EB]2 [EB]2 [EB]2 | %507
 (3z2"_cresc. sempre" [Ec]2 [Ec]2 (3[Ec]2 [Ec]2 [Ec]2 | (3z2 [Fc]2 [Fc]2 (3[Fc]2 [Fc]2 [Fc]2 | %509
 (3z2 [Fd]2 [Fd]2 (3z2 [Fd]2 [Fd]2 | (3z2"^rit." [G=e]2 [Ge]2 (3z2 [Ge]2 [Ge]2 | %511
 z2!f! !>![A^f]4 !>![Af]2- | [Af]2 !>![A^f]2 !>![Af]2 !>![Af]2 | (!tenuto![Gg]4 !tenuto![Gg]4) | %514
 !>!.[Gg]2 [Gg]4 z2 | !tenuto![Dd]4- !tenuto![Dd]4 | !>!.[Dd]2 [Dd]4 z2 | z8 | z4 z2!pp! G,B, | %519
"_cresc. molto" .A,2 .G,2 .A,2 .G,2 | .A2 .G2 .A2 .G2 | z4!f! [Gd]4- | [Gd]4 [Gd]4- | %523
 [Gd]4!<(! [Gd]4 | ([Gd]4 !tenuto![Gd]4)!<)! | [G=e]8- | (([Ge]8 |!<(! (([G_e]8)) | [Gd]8))!<)! | %529
 ((!>![G-d]8 | ((!>![G-^c]8)) |!<(! (((!>![G=c]8)) | [G=B]8)))!<)! |!ff! [D_B]8- | [DB]8 | %535
!>(! [CA]8- | [CA]8!>)! | z4!p! G,4- | G,4 (G,4 | G,4) (!tenuto!G,4 | %540
!>(! !tenuto!G,4 !tenuto!G,4)!>)! |!ppp! (!>![G,-=E]8 | ((([G,=E]8) | (([G,-_E]8))) | [G,D]8)) | %545
 (!>!D8 | ^C8 | =C8 | =B,8) | _B,8- | B,8 | (C8 | C8) | z8 | z8 | z8 | z8 | z8 | z8 || %559
[K:G]"^tremolo""_sul ponticello"!pp! !///!D8 |!<(! !///!D8!<)! |!>(! !///!D8!>)! | !///!D8 | %563
 !///!D8 | !///!D8 | !///!D8 | !///!D8 | !///!^C8 | !///!^C8 | !///!^C8 | !///!^C8 |!<(! !///!G8 | %572
 !///!G8!<)! |!>(! !///![G,G]8 | !///![G,G]8!>)! |!<(! !///!G8 | !///!G8!<)! |!>(! !///![G,G]8 | %578
 !///![G,G]8!>)! |!<(! !///!G8 | !///!G8!<)! |!>(! !///![G,G]8 | !///![G,G]8!>)! | !///!G8 | %584
 !///!G8 | !///!G8 | .G2 z2 z4 | !>!.e4 z4 | d8- |!>(! d8- | d4!>)! z4 |!ppp! !///!G8 | !///!G8 | %593
 !///!G8 | .G2 z2 z4 | !>!._e4 z4 | d8- |!>(! d8-!>)! | d4 !fermata!z4 || %599
[K:Bb]"_al ordinario"!ff! !>![GB]4 !>![Gc]4 | !>!.[G_d]2 !>!.[Gc]2 z2 z2 | !>![GB]4 !>![GB]4 | %602
 !>!.[DB]2 !>!.[DA]2 z4 |!sfz! !>![GB]2 !>![Gc]2 !>![G_d]2 !>![Gc]2 | %604
 !>![GB]2 !>![GB]2 !>![DB]2 !>![DA]2 |!sfz! [GB][GB][Gc][Gc] [G_d][Gd][Gc][Gc] | %606
 [GB][GB]!<(![GB][GB] [DB][DB][DA]!<)![DA] |!sfz! gg^ff ddff | =ff_dd ff=ee | cc=ee _ee=BB | %610
 eedd _BBdd |!sfz!"^poco rit." [=E^c]4- [Ec]2 z2 |!sfz! [^Fd]4- [Fd]2 z2 |!sfz!!<(! [Gd]8- | %614
 [Gd]8- | .[Gd]2!<)! z4 z2 |] %616
V:4
 G,2 x6 | x8 | x8 | x8 | A,2 x6 | x8 | x8 | x8 | x8 | x8 | x8 | x8 | x8 | x8 | x8 | x8 || x8 | x8 | %18
 x8 | x8 | x8 | x8 | x8 | x8 | x8 | x8 | x8 | x8 | x8 | x8 | x8 | x8 | x8 | x8 | x8 | x8 | x8 | %37
 x8 | x8 | x8 | x8 | x8 | x8 | x8 | x8 | x8 | x8 | x8 | x8 | x8 | x8 | x8 | x8 | x8 | x8 | x8 | %56
 x8 | x8 | x8 | x8 | x8 | x8 | x8 | x8 | x8 | x8 | x8 | x8 | x8 | x8 | x8 | x8 | x8 | x8 | x8 | %75
 x8 | x8 | x8 | x8 | x8 | x8 | x8 | x8 | x8 | x8 | x8 | x8 | x8 | x8 | x8 | x8 | x8 | x8 | x8 | %94
 x8 | x8 | x8 | x8 | x8 | x8 | x8 | x8 | x8 | x8 | x8 | x8 | x8 | x8 | x8 | x8 | x8 | x8 | x8 | %113
 x8 | x8 | x8 | x8 | x8 | x8 | x8 | x8 | x8 | x8 | x8 | x8 | x8 | x8 | x8 | x8 | x8 | x8 | x8 | %132
 x8 | x8 | x8 | x8 | x8 | x8 | x8 | x8 | x8 | x8 | x8 | x8 | x8 | x8 | x8 | x8 | x8 | x8 | x8 | %151
 x8 | x8 | x8 | x8 | x8 | x8 | x8 | x8 | x8 | x8 | x8 | x8 | x8 | x8 | x8 | x8 | x8 | x8 | x8 | %170
 x8 | x8 | x8 | x8 | x8 | x8 | x8 | x8 | x8 | x8 | x8 | x8 | x8 | x8 | x8 | x8 | x8 | x8 | x8 | %189
 x8 | x8 | x8 | x8 | x8 | x8 | x8 | x8 | x8 | x8 | x8 | x8 | x8 | x8 | x8 | x8 | x8 | x8 | x8 | %208
 x8 | x8 | x8 | x8 | x8 | x8 | x8 | x8 | x8 | x8 | x8 | x8 | x8 | x8 | x8 | x8 | x8 | x8 | x8 | %227
 x8 | x8 | x8 | x8 | x8 | x8 | x8 | x8 | x8 | x8 | x8 | x8 | x8 | x8 | x8 | x8 | x8 | x8 | x8 | %246
 x8 | x8 | x8 | x8 | x8 | x8 | x8 | x8 | x8 | x8 | x8 | x8 | x8 | x8 | x8 | x8 | x8 | x8 | x8 | %265
 x8 | x8 | x8 | x8 | x8 | x8 | x8 | x8 | x8 | x8 | x8 | x8 | x8 | x8 | x8 | x8 | x8 | x8 | x8 | %284
 x8 | x8 | x8 | x8 | x8 | x8 | x8 | x8 | x8 | x8 | x8 | x8 | x8 | x8 | x8 | x8 | x8 | x8 | x8 | %303
 x8 | x8 | x8 | x8 | x8 | x8 | x8 | x8 | x8 | x8 | x8 | x8 | x8 | x8 | x8 | x8 | x8 | x8 | x8 | %322
 x8 | x8 | x8 | x8 | x8 | x8 | x8 | x8 | x8 | x8 | x8 | x8 | x8 | x8 | x8 | x8 | x8 | x8 | x8 | %341
 x8 | x8 | x8 | x8 | x8 | x8 | x8 | x8 | x8 | x8 | x8 | x8 | x8 | x8 | x8 | x8 | x8 | x8 | x8 | %360
 x8 | x8 | x8 | x8 | x8 | x8 | x8 | x8 | x8 | x8 | x8 | x8 | x8 | x8 | x8 | x8 | x8 | x8 | x8 | %379
 x8 | x8 | x8 | x8 | x8 | x8 | x8 | x8 | x8 | x8 | x8 | x8 | x8 | x8 | x8 | x8 | x8 | x8 | x8 | %398
 x8 | x8 | x8 | x8 | x8 | x8 | x8 | x8 | x8 | x8 | x8 | x8 | x8 | x8 | x8 | x8 | x8 | x8 | x8 | %417
 x8 | x8 | x8 | x8 | x8 | x8 | x8 | x8 | x8 | x8 | x8 | x8 | x8 | x8 | x8 | x8 | x8 | x8 | x8 | %436
 x8 | x8 | x8 | x8 | x8 | x8 | x8 | x8 | x8 | x8 | x8 | x8 | x8 | x8 | x8 | x8 | x8 | x8 | x8 | %455
 x8 | x8 | x8 | x8 | x8 | x8 | x8 | x8 | x8 | x8 | x8 | x8 | x8 | x8 | x8 | x8 | x8 | x8 | x8 | %474
 x8 | x8 | x8 | x8 | x8 | x8 | x8 | x8 | x8 | x8 | x8 | x8 | x8 | x8 | x8 | x8 | x8 | x8 | x8 | %493
 x8 | x8 | x8 | x8 | x8 | x8 | x8 | x8 | x8 | x8 | x8 | x8 | x8 | x8 | x8 | x8 | x8 | x8 | x8 | %512
 x8 | x8 | x8 | x8 | x8 | x8 | x8 | x8 | x8 | x8 | x8 | x8 | x8 | C4 x4 | x8 | x8 | x8 | x8 | x8 | %531
 x8 | x8 | x8 | x8 | x8 | x8 | x8 | x8 | x8 | x8 | x8 | x8 | x8 | x8 | x8 | x8 | x8 | x8 | x8 | %550
 x8 | x8 | x8 | x8 | x8 | x8 | x8 | x8 | x8 ||[K:G] x8 | x8 | x8 | x8 | x8 | x8 | x8 | x8 | x8 | %568
 x8 | x8 | x8 | x8 | x8 | x8 | x8 | x8 | x8 | x8 | x8 | x8 | x8 | x8 | x8 | x8 | x8 | x8 | x8 | %587
 x8 | x8 | x8 | x8 | x8 | x8 | x8 | x8 | x8 | x8 | x8 | x8 ||[K:Bb] x8 | x8 | x8 | x8 | x8 | x8 | %605
 x8 | x8 | x8 | x8 | x8 | x8 | x8 | x8 | x8 | x8 | x8 |] %616
V:5
!f!!f! !>!G8 | !>!F4 !>!D2 !>!F2 | !>!F4 (!>!E4- | E4 !>!B,4) | !>!D8- |!>(! D8- | %6
 D4!>)! (!tenuto!D,4 |!<(! !tenuto!D,4 !tenuto!D,4)!<)! | [E,G,]8- | [E,G,]8- |!>(! [E,G,]8- | %11
 [E,G,]8!>)! |!p!!>(! [D,G,]8- | [D,G,]4!>)! !fermata!z4 |!pp!!>(! ^F,8-!>)! | F,4 !fermata!z4 || %16
!pp! ((D,4 D,)E,).E,.F, | ((D,4 D,)E,).E,.F, | ((D,4 D,)E,)!<(!(.E,.F,)!<)! | %19
!>(! (F,G,)!>)!(.G,.A,) (A,G,)(.G,.F,) | ((F,4 F,)G,).G,.A, | ((F,4 F,)G,).G,.A, | %22
 ((F,4 F,)!0!G,)!<(!(G,A,)!<)! |!>(! (A,B,)!>)!(.B,.C) (CB,)(.B,.A,) | %24
 ((A,4 A,)B,)!<(!(.B,.C)!<)! |!>(! (CD)!>)!(.D.E) (ED)(.D.C) |"_cresc." ((C4 C)D)!<(!(.D.E)!<)! | %27
!>(! (EF)!>)!(.F.G) (GF)(.F.E) | (!>!EF)(.F.G) (GF)(.F.E) | (!>!EF)(.F.G) (GF)(.F.E) | %30
 (!>!GA)(.A.B) (BA)(.A.G) | (!>!GA)(.A.B) (BA)(.A.G) |!sfz! [Dd]8 | .[Dd]2 !>![Dd]6 | %34
!p! (!>!GA)(.A.B)"_cresc." (BA).A.G | (!>!GA)(.A.B) (BA)(.A.G) |!sfz! [Dd]8 | .[Dd]2 !>![Dd]6 | %38
!f! [Dd]4 .[Dd]2 !>![Dd]2 |!f! [Dd]4 .[Dd]2 !>![Dd]2 | !>![Dd]4 !>![Dd]4 | !>![Dd]4 !>![Dd]4 | %42
!sfz! [Dd]2 [Dd]2 [Dd]2 [Dd]2 |"_sost."!<(! [Dd]2 [Dd]2 [Dd]2 [Dd]2!<)! | %44
!ff! ([Gd][Ge]).[Ge].[Gf] ([Gd]4- | [Gd][Ge]).[Ge].[Gf] [Gd]4- | [Gd]2 v[Ge]4 [Gf]2- | %47
 [Gf]2 [Ge]4 [Gd]2 | !>![Gf]2 v[Ge]4 [Gd]2 | [Gf]2 [Ge]2 [Ge]2 [Gd]2 | %50
 (3!>![Gf]2 [Ge]2 [Ge]2 (3[Ge]2 [Gd]2 [Gd]2 |!<(! [Gf][Ge][Ge][Ge] [Ge][Gd][Gd][Gd]!<)! | %52
 ([^Fd][Fe]).[Fe].[F=f] (([Fd-]4 | [^Fd])[Fe]).[Fe].[F=f] [Fd]4- | [Fd]2 v[^Fe]4 [F=f]2- | %55
 [Ff]2 [^Fe]4 [Fd]2 | !>![^F=f]2 v[Fe]4 [Fd]2 | [^F=f]2 [Fe]2 [Fe]2 [Fd]2 | %58
 (3!>![^F=f]2 [Fe]2 [Fe]2 (3[Fe]2 [Fd]2 [Fd]2 |!<(! [^F=f][Fe][Fe][Fe] [Fe][Fd][Fd][Fd]!<)! | %60
 !>!d4 !>!^c4 | !>!c4 !>!=B4 | !>!B4 !>!A4 | !>!_A4 !>!G4 | z4!sfz! (B4 | A4) c4 | !>!_A4 !>!G4 | %67
 !>!^F4 !>!=F4 | !>!=E4 !>!_E4 | !>!D4 !>!^C4 | %70
!pp! (3.[=B,D]2 .[B,D]2 .[B,D]2 (3.[B,D]2 .[B,D]2 .[B,D]2 | %71
 (3.[=B,D]2 .[B,D]2 .[B,D]2 (3.[B,D]2 .[B,D]2 .[B,D]2 | %72
 (3.[B,D]2 .[B,D]2"_cresc." .[B,D]2 (3.[B,D]2 .[B,D]2 .[B,D]2 | %73
 (3.[B,D]2 .[B,D]2 .[B,D]2 (3.[B,D]2 .[B,D]2 .[B,D]2 | %74
"_molto" (3.[A,D]2 .[A,D]2 .[A,D]2 (3.[A,D]2 .[A,D]2 .[A,D]2 | %75
 (3.[A,D]2 .[A,D]2 .[A,D]2 (3.[A,D]2 .[A,D]2 .[A,D]2 | %76
 (3.[CA]2 .[CA]2 .[CA]2 (3.[CA]2 .[CA]2 .[CA]2 | (3.[CA]2 .[CA]2 .[CA]2 (3.[CA]2 .[CA]2 .[CA]2 | %78
!ff! !>![=EB]8 | !>![EB]8 | !>![=EB]8 | !>![EB]8 | !>![=EB]4 !>![_EB]4 | !>![=EB]4 !>![_EB]4 | %84
 !>![=EB]2 !>![_EB]2 !>![=EB]2 !>![_EB]2 | !>![=EB]2 !>![_EB]2 !>![=EB]2 !>![_EB]2 | %86
 .[G,G]2 [G,G][G,G] .[G,G]2 [G,G][G,G] | .[G,G]2 [G,G][G,G] .[G,G]2 [G,G][G,G] | z2 !>!g4 !>!^f2 | %89
 (!>!d4 !>!B4) | .uG.D!<(! G,6- | G,8- | .[G,DB]4!<)! z4 | z8 | (B8 |!pp! A4 F2 A2) | (A4 G4- | %97
 G4 D4 |!<(! F8)!<)! |!>(! =E8!>)! |!<(! [EA]8!<)! |!>(! =E8!>)! |!<(! [EA]8!<)! |!>(! =E8!>)! | %104
 [EA]8- | [EA]4 z4 | z2!ff! !>!B4 !>!A2 | (!>!F4 !>!D4) | .uB,.A, F,6- | F,4 z4 |!pp! (F8 | %111
 E4 C2 E2) | (E4 _D4- | D4 _A,4 |!<(! C8)!<)! |!>(! =B,8!>)! |!<(! [B,=E]8!<)! |!>(! =B,8!>)! | %118
!<(! [B,=E]8!<)! |!>(! =B,8!>)! | [B,=E]8- | [B,E]4 z4 | z2!ff! !>!F4 !>!=E2 | (!>!C4 _A,4) | %124
 .uF,.=E, C,6- | C,4 z4 |!pp! A,4 B,4 | .D2 C4 z2 | .B,2 A,4 z2 | .D2 C4 z2 |"_cresc." C4 D4 | %131
 .F2 E4 z2 | .D2 C4 z2 | .F2 E4 z2 | z4 .G2 .G2 | z4 .B2 .B2 | z4!sfz! .[CGe]2 z2 | z8 | %138
 z4"^pizz."!sfz! [C,G,E]2 z2 | z8 | z8 | z8 | z8 | z8 |"^arco"!pp! !/!!>![B,E]4 !/![B,E]4 | %145
 !/!!>![A,E]4 !/![A,E]4 | !/!!>![_A,E]4!<(! !/![A,E]4 | !/!!>![G,E]4 !/![G,E]4!<)! | %148
!>(! !/!!>![^F,E]4 !/![F,E]4 | !/!!>![G,E]4 !/![G,E]4!>)! | !/!!>![_A,E]4 !/![A,E]4 | %151
 !/!!>![A,E]4 !/![A,E]4 |"_cresc." !/!!>![B,E]4 !/!!>![A,E]4 | !/!!>![_A,E]4 !/!!>![G,E]4 | %154
 !/!!>![^F,E]4 !/!!>![G,E]4 | !/!!>![_A,E]4 !/!!>![=A,E]4 | %156
 !/!!>![B,E]2 !/!!>![A,E]2 !/!!>![_A,E]2 !/!!>![G,E]2 | %157
 !/!!>![^F,E]2 !/!!>![G,E]2 !/!!>![_A,E]2 !/!!>![=A,E]2 |!f! !/!!>![B,E]4!<(!!<(! !/!!>![B,E]4 | %159
 !/!!>![B,E]4!<)!!<)! !/!!>![B,E]4 | z4 [A,E]4- | [A,E]8- | [A,E]2 z2 z4 | z8 | %164
!ff! (d4 !tenuto!d2) .d.d | .d2 d4 B2 | (G4 !tenuto!G2) .G.G | .G2 G4 E2- | %168
"_dim. ed un poco rit." E2 E4 C2- | C2 C4 A,2- | A,4 G,4- | G,4 F,4 | (F,8 | =E,4 _E,4) | %174
 z2!p! (D,F,) z2 (D,F,) | z2 (F,G,) z2 (F,G,) | z2 (E,G,) z2 (E,G,) | z2 (G,A,) z2 (G,A,) | %178
 z2"_cresc." (F,A,) z2 (_A,B,) | z2 (G,B,) z2 (B,C) | z2 !>![EA]4 !>![EA]2- | %181
 [EA]2 !>![EA]4 .[EA]2 | (3z2!f! [DB]2 [DB]2 (3[DB]2 [DB]2 [DB]2 | %183
 (3z2 [F=B]2 [FB]2 (3[FB]2 [FB]2 [FB]2 | (3z2 [Ec]2 [Ec]2 (3[Ec]2 [Ec]2 [Ec]2 | %185
 (3z2 [G^c]2 [Gc]2 (3[Gc]2 [Gc]2 [Gc]2 | (3z2!f! [Fd]2 [Fd]2 (3z2 [_Ad]2 [Ad]2 | %187
 (3z2"_rit." [Ge]2 [Ge]2 (3z2 [B=e]2 [Be]2 | z2 !>![Ae]4 !>![Ae]2- | %189
 [Ae]2 !>![Ae]2 !>![Ae]2 !>![Ae]2 | z8 | (B4!ff! !tenuto!A2) .F.A | .G2 F4 z2 | %193
 (E4 !tenuto!D2) B,D | .C2 B,4!pp! vB,D | .C2 B,4"_cresc. molto" B,C | .C2 .B,2 .C2 .B,2 | %197
 .C2 .B,2 .C2 .B,2 | z4!ff! [B,D]4- | [B,D]4 [B,D]4- | [B,D]4 [B,D]4- | [B,D]4 z4 | %202
 z4"_lentamente" !>![B,_D]4- | [B,D]4 !>![B,_D]4- | [B,D]4 !>![B,_D]4- | !fermata![B,D]4 z4 | %206
"^sul C"!pp! ((F,4 F,)_G,).G,._A, | ((F,4 F,)_G,).G,._A, | ((F,4 F,)_G,)!<(!(.G,._A,)!<)! | %209
!>(! (_A,B,)!>)!(.B,.C) (CB,)(.B,.A,) | (_A,2 F,2) z4 |!p! (B,8 | F,8) | (B,8 |!<(! B,8)!<)! | %215
 z2!pp! [_D=E]6 | z2 [_D=E]6 | z2 [_D=E]6 | z2 [_D=E]6- |"_cresc." [DE]2 [_D=E]4 [DE]2- | %220
 [DE]2 [_D=E]4 [DE]2- | [DE]2 .[_D=E]2 .[DE]2 .[DE]2 |"_poco rit." .[_D=E]2 .[DE]2 .[DE]2 .[DE]2 | %223
 (B,8 |!<(! =B,4 D2 B,2)!<)! |!>(! (=B,4 (_B,4!>)! | B,4) ^C4) |!pp! ((^F,4 F,)G,).G,.A, | %228
 ((^F,4 F,)G,).G,.A, | ((^F,4 F,)G,)!<(!(.G,.A,)!<)! |!>(! (A,=B,)!>)!(.B,.^C) (CB,)(.B,.A,) | %231
 (A,2 ^F,2) z4 | (=B,8 | ^F,8) | =B,8- |!<(! B,8!<)! | z2!pp! [=B,D]6 | z2 [=B,D]6 | z2 [=B,D]6 | %239
 z2 [=B,D]6- |"_cresc." [B,D]2 [=B,D]4 [B,D]2- | [B,D]2 [=B,D]4 [B,D]2- | %242
 [B,D]2 .[=B,D]2 .[B,D]2 .[B,D]2 |"_poco rit." .[=B,D]2 .[B,D]2 .[B,D]2 .[B,D]2 | (=B,8 | %245
 C4!<(! E2 C2)!<)! |!>(! (C4!>)! =B,4- | B,4 D4) | %248
 z2!ff! !>![C,G,]2- [C,G,]!<(!.[D,G,].[D,G,].[E,G,]!<)! | %249
 z2 !>![C,G,]2- [C,G,]!<(!.[D,G,].[D,G,].[E,G,]!<)! | .[C,G,]2 v[D,G,]4 [E,G,]2- | %251
 [E,G,]2 [D,G,]4 .[C,G,]2 | z2!pp! !>![C,G,]2- [C,G,].[D,G,].[D,G,].[E,G,] | %253
 z2 !>![C,G,]2- [C,G,].[D,G,].[D,G,].[E,G,] | %254
 z2"_cresc. molto" !>![^C,G,]2- [C,G,].[D,G,].[D,G,].[=E,G,] | %255
 z2 !>![^C,G,]2- [C,G,].[D,G,].[D,G,].[=E,G,] | %256
!ff! z2 !>![^C,^G,]2-!<(! [C,G,].[E,G,].[E,G,].[=E,G,]!<)! | %257
 z2 !>![^C,^G,]2-!<(! [C,G,].[E,G,].[E,G,].[=E,G,]!<)! | .[^C,^G,]2 v[E,G,]4 [=E,G,]2- | %259
 [E,G,]2 [_E,^G,]4 .[^C,G,]2 | z2!pp! !>![^C,^G,]2- [C,G,].[E,G,].[E,G,].[=E,G,] | %261
 z2 !>![^C,^G,]2- [C,G,].[E,G,].[E,G,].[=E,G,] | %262
 z2"_cresc. molto" !>![D,^G,]2- [D,G,].[E,G,].[E,G,].[F,G,] | %263
 z2 !>![D,^G,]2- [D,G,].[E,G,].[E,G,].[F,G,] | %264
 z2!ff! !>![D,A,]2- [D,A,]!<(!.[=E,A,].[E,A,].[F,A,]!<)! | z8 | z8 | %267
 z2!ff!!ff! !>![E,A,]2-!<(! [E,A,].[=E,A,].[E,A,].[^F,A,]!<)! | z8 | z8 | z8 | z8 | z8 | z8 | %274
!p! (c8 | c8) |!<(!{Bc} (B8 | _G4 B4)!<)! |!sfz!!>(! (B8 | A8)!>)! |"_cantabile" (c2 _d2 e2 d2 | %281
!<(! f2 e2 (3_d2 e2 c2)!<)! |!>(! (B8!>)! | A8) | z8 | z8 | z8 | z8 |!p! D,8- | D,8- | D,8- | D,8 | %292
 (A,2 B,2 C2 B,2 | D2 C2 (3B,2 C2 A,2) | (G,8 |!>(! ^F,8-)!>)! |!pp! F,8- | F,8- | %298
"_poco riten." F,4 z4 | z8 | z4!ppp! _A,4 | (E,4 C,4) |!ppp! v[E,E]8- | [E,E]8 | !tenuto![E,E]8- | %305
 !tenuto![E,E]8 | !>![_F,_F]8- | [F,F]8- | ([F,F]4 E4) | (.E4 ._D4) | [E,E]8- | [E,E]8- | %312
 [E,E]4 [E,E]4 |!<(! ((!tenuto![E,E]4 !tenuto![E,E]4))!<)! | !>![_F,_F]8- |!<(! [F,F]8-!<)! | %316
!>(! [F,F]8-!>)! | ([F,F]2 E2) .E2 ._D2 | [E,E]8- | [E,E]4 (3(.[E,E]2 .[E,E]2 .[E,E]2) | %320
"_rit. molto"!<(! [E,E]4 [E,E]4 | [E,E]4 [E,E]4!<)! | (D8 |!>(! ^C8-) | C8- | C8!>)! | %326
!ppp! ((D,4 D,)E,).E,.F, | ((D,4 D,)E,).E,.F, | ((D,4 D,)E,)!<(!(.E,.F,)!<)! | %329
!>(! (F,G,)(.G,!>)!.A,) (A,G,)(.G,.F,) | ((F,4 F,)G,).G,.A, | ((F,4 F,)G,).G,.A, | %332
 ((F,4 F,)G,)!<(!(.G,.A,)!<)! |!>(! (A,B,)!>)!.B,.C (CB,)(.B,.A,) | %334
"_cresc." ((A,4 A,)B,)!<(!(.B,.C)!<)! |!>(! (CD)!>)!(.D.E) (ED)(.D.C) | ((C4 C)D)!<(!(.D.E)!<)! | %337
!>(! (EF)!>)!(.F.G) (GF)(.F.E) |!>(! (EF)!>)!(.F.G) (GF)(.F.E) |!>(! (EF)!>)!(.F.G) (GF)(.F.E) | %340
!>(! (GA)!>)!(.A.B) (BA)(.A.G) |!>(! (GA)!>)!(.A.B) (BA)(.A.G) |!sfz! [Dd]8 | .[Dd]2 !>![Dd]6 | %344
!f! [Dd]4 .[Dd]2 !>![Dd]2 | [Dd]4 .[Dd]2 !>![Dd]2 |!f! !>![Dd]4 !>![Dd]4 | !>![Dd]4 !>![Dd]4 | %348
 !>![Dd]2 [Dd]2 [Dd]2 [Dd]2 |"_sost." !>![Dd]2 [Dd]2 [Dd]2 [Dd]2 | %350
!ff! ([Gd][Ge]).[Ge].[Gf] ([Gd]4- | [Gd][Ge]).[Ge].[Gf] [Gd]4- | [Gd]2 v[Ge]4 [Gf]2- | %353
 [Gf]2 [Ge]4 [Gd]2 | !>![Gf]2 v[Ge]4 [Gd]2 | !>![Gf]2 [Ge]2 [Ge]2 [Gd]2 | %356
 (3!>![Gf]2 [Ge]2 [Ge]2 (3[Ge]2 [Gd]2 [Gd]2 |!<(! !>![Gf][Ge][Ge][Ge] [Ge][Gd][Gd][Gd]!<)! | %358
 ([^Fd][Fe]).[Fe].[Ff] ([Fd]4- | [Fd][^Fe]).[Fe].[F=f] [Fd]4- | [Fd]2 v[^Fe]4 [F=f]2- | %361
 [Ff]2 [^Fe]4 [Fd]2 | !>![^F=f]2 v[Fe]4 [Fd]2 | !>![^F=f]2 [Fe]2 [Fe]2 [Fd]2 | %364
 (3!>![^F=f]2 [Fe]2 [Fe]2 (3[Fe]2 [Fd]2 [Fd]2 |!<(! !>![^F=f][Fe][Fe][Fe] [Fe][Fd][Fd][Fd]!<)! | %366
 !>!d4 !>!^c4 | !>!=c4 !>!=B4 | !>!B4 !>!A4 | !>!_A4 !>!G4 | z4!sfz! (B4 | A4) c4 | !>!_A4 !>!G4 | %373
 !>!^F4 !>!=F4 | !>!=E4 !>!E4 | !>!D4 !>!^C4 | %376
!pp! (3.[=B,D]2 .[B,D]2 .[B,D]2 (3.[B,D]2 .[B,D]2 .[B,D]2 | %377
 (3.[=B,D]2 .[B,D]2 .[B,D]2 (3.[B,D]2 .[B,D]2 .[B,D]2 | %378
"_cresc. molto e stretto" (3.[B,D]2 .[B,D]2 .[B,D]2 (3.[B,D]2 .[B,D]2 .[B,D]2 | %379
 (3.[B,D]2 .[B,D]2 .[B,D]2 (3.[B,D]2 .[B,D]2 .[B,D]2 | %380
 (3.[A,D]2 .[A,D]2 .[A,D]2 (3.[A,D]2 .[A,D]2 .[A,D]2 | %381
 (3.[A,D]2 .[A,D]2 .[A,D]2 (3.[A,D]2 .[A,D]2 .[A,D]2 | %382
 (3.[CA]2 .[CA]2 .[CA]2 (3.[CA]2 .[CA]2 .[CA]2 | (3.[CA]2 .[CA]2 .[CA]2 (3.[CA]2 .[CA]2 .[CA]2 | %384
!ff! !>![=EB]8 | !>![EB]8 | !>![=EB]8 | !>![EB]8 | !>![=EB]4 !>![_EB]4 | !>![=EB]4 !>![_EB]4 | %390
 !>![=EB]2 !>![_EB]2 !>![=EB]2 !>![_EB]2 | !>![=EB]2 !>![_EB]2 !>![=EB]2 !>![_EB]2 | %392
 !>!.[G,G]2 [G,G][G,G] !>!.[G,G]2 [G,G][G,G] | !>!.[G,G]2 [G,G][G,G] !>!.[G,G]2 [G,G][G,G] | %394
 z2 !>!g4 !>!^f2 | (!>!d4 !>!B4) | !>!.uG.D!<(! G,6- | (G,8- | .[G,DB]4)!<)! z4 | z8 |!pp! (E8 | %401
 D4 B,2 D2) | (D4 C4- | C4 G,4 |!<(! B,8)!<)! |!>(! A,8!>)! |!<(! [_A,D]8!<)! |!>(! A,8!>)! | %408
!<(! [_A,D]8!<)! |!>(! A,8!>)! | [_A,D]8- | [A,D]4 z4 | z2!ff! !>!e4 !>!d2 | (!>!B4 !>!G4) | %414
 !>!.uE.D B,6- | B,4 z4 |!pp! (B8 | _A4 F2 A2) | (_A4 _G4- | G4 _D4 |!<(! F8)!<)! |!>(! =E8!>)! | %422
!<(! [EA]8!<)! |!>(! =E8!>)! |!<(! [EA]8!<)! |!>(! =E8!>)! | [EA]8- | [EA]4 z4 | %428
 z2!ff! !>!B4 !>!A2 | (!>!F4 !>!_D4) | !>!.uB,.A, F,6- | F,4 z4 |"^animato"!pp! D,4 C,4 | %433
 !>!.G,2 F,4 z2 | !>!.E,2 D,4 z2 | !>!.G,2 F,4 z2 |"_poco a poco cresc." F,4 G,4 | %437
 !>!.B,2 _A,4 z2 | !>!.G,2 F,4 z2 | !>!.B,2 _A,4 z2 | z4 !>!.C2 .C2 | z4 !>!.E2 .E2 | %442
 z4!sfz! [_Af]2 z2 | z8 | z4"^pizz."!sfz! [F,C_A]2 z2 | z8 | z8 | z8 | z8 | z8 | %450
!pp!"^arco" !/!!>![E_A]4 !/![EA]4 | !/!!>![D_A]4 !/![DA]4 |!<(! !/!!>![_D_A]4 !/![DA]4 | %453
 !/!!>![C_A]4 !/![CA]4!<)! |!>(! !/!!>![=B,_A]4 !/![B,A]4!>)! |!>(! !/!!>![C_A]4 !/![CA]4!>)! | %456
!>(! !/!!>![_D_A]4 !/![DA]4!>)! | !/!!>![D_A]4 !/![DA]4 | !/!!>![E_A]4 !/!!>![DA]4 | %459
"_cresc." !/!!>![_D_A]4 !/!!>![CA]4 |"_cresc." !/!!>![=B,_A]4 !/!!>![CA]4 | %461
 !/!!>![_D_A]4 !/!!>![=DA]4 | !/!!>![E_A]2 !/!!>![DA]2 !/!!>![_DA]2 !/!!>![CA]2 | %463
 !/!!>![=B,_A]2 !/!!>![CA]2 !/!!>![_DA]2 !/!!>![=DA]2 |!f! !/![E_A]4!<(! !/![EA]4 | %465
 !/![E_A]4!<)! !/![EA]4 | z4 [D_A]4- | [DA]8- | [DA]2 z2 z4 | z8 | %470
!ff! (!tenuto!g4 !tenuto!g2) .g.g | !>!.g2 g4 e2 | (!tenuto!c4- !tenuto!c2) .c.c | %473
 !>!.c2 c4 (_A2- |"_dim." A2) F4 (F2- | F2) F4 (D2- | D4) (C4 | C4) (B,4- | B,4) (_A,4- | %479
 A,4) (G,4- | G,4) (F,4- | F,4) E,4 |!pp! E,8 | E,8- | E,8 |"_cresc." F,8 | F,8- | F,8 | G,8 | %489
!f! (!>!G,8 | G,8) |"_dimin. e sempre ritard." E,8 | C,8 | E,8 | C,8 |!p! (D,8 |!>(! ^C,8)!>)! | %497
!pp! (G,4 !tenuto!F,2) (.D,.F,) | !>!.D,2 E,4 E,2 | (_A,4 !tenuto!G,2) .E,.G, | !>!.=E,2 F,4 F,2 | %501
 (!>!B,2 _A,2)"_cresc." ^F,2 G,2 | (!>!C2 B,2) ^G,2 =A,2 | !>!.^C2 [DA]4!<(! [=FA]2- | %504
 [FA]2 [EA]4 [DA]2!<)! | (3z2!mf! [B,G]2 [B,G]2 (3[B,G]2 [B,G]2 [B,G]2 | %506
 (3z2 [B,G]2 [B,G]2 (3[B,G]2 [B,G]2 [B,G]2 | %507
 (3z2"_cresc. sempre" [C_A]2 [CA]2 (3[CA]2 [CA]2 [CA]2 | (3z2 [C=A]2 [CA]2 (3[CA]2 [CA]2 [CA]2 | %509
 (3z2 [DB]2 [DB]2 (3z2 [D=B]2 [DB]2 | (3z2"^rit." [=Ec]2 [Ec]2 (3z2 [E^c]2 [Ec]2 | %511
 z2!f! !>![D=c]4 !>![Dc]2- | [Dc]2 !>![Dc]2 !>![Dc]2 !>![Dc]2 | z8 | (!tenuto!G4 !tenuto!F2) DF | %515
 !>!.E2 D4 z2 | (!tenuto!C4 !tenuto!B,2) G,B, | !>!.A,2 G,4!pp! vG,B, | !>!.A,2 G,4 G,B, | %519
"_cresc. molto" .A,2 .G,2 .A,2 .G,2 | .A,2 .G,2 .A,2 .G,2 | z4!f! [G,D]4- | [G,D]4 [G,D]4- | %523
 [G,D]4!<(! [G,D]4 | ([G,D]4 !tenuto![G,D]4)!<)! | [=EB]8- | ([EB]8 | (B4)!<(! (A4) | [DA]8)!<)! | %529
 (!>!D8 | !>!^C8 |!<(! !>!=C8!<)! | !>!=B,8) |!ff! [_B,G]8- | [B,G]8 |!>(! ([A,-G]8 | %536
 [A,^F]8)!>)! | z4!p! (B,4 | B,4) (B,4- | B,4) (!tenuto!B,4 |!>(! !tenuto!B,4 !tenuto!B,4)!>)! | %541
!ppp! !>![=E,B,]8- | ([E,B,]8 | (B,4) (A,4) | [D,A,]8) | !>![E,G,]8- | [E,G,]8- | [E,G,]8- | %548
 [E,G,]8 | [D,G,]8- | [D,G,]8 | (G,8 | ^F,8) | z8 | z8 | .=F,4 ((E,4- | E,4) D,4) | z8 | z8 || %559
[K:G]"^tremolo""_sul ponticello"!pp! !///!G,8 |!<(! !///!G,8!<)! |!>(! !///!G,8!>)! | !///!G,8 | %563
 !///!G,8 | !///!G,8 | !///!G,8 | !///!G,8 | !///!G,8 | !///!G,8 | !///!G,8 | !///!G,8 | %571
!<(! !///!G,8 | !///!G,8!<)! |!>(! !///![C,C]8 | !///![C,C]8!>)! |!<(! !///!G,8 | !///!G,8!<)! | %577
!>(! !///![C,C]8 | !///![C,C]8!>)! |!<(! !///!G,8 | !///!G,8!<)! |!>(! !///![C,C]8 | %582
 !///![C,C]8!>)! | !///!G,8 | !///!G,8 | !///!G,8 | .G,2 z2 z4 | !>!.E4 z4 | D8- |!>(! D8-!>)! | %590
 D4 z4 |!ppp! !///!G,8 | !///!G,8 | !///!G,8 | .G,2 z2 z4 | !>!._E4 z4 | D8- |!>(! D8- | %598
 D4!>)! !fermata!z4 ||[K:Bb]"_al ordinario"!ff! !>![G,G]4 !>![G,^F]4 | !>!.[G,=F]2 !>!.[G,=E]2 z4 | %601
 !>![G,_E]4 !>![G,D]4 | !>!.F2 !>!.^F2 z4 |!sfz! !>![G,G]2 !>![G,^F]2 !>![G,=F]2 !>![G,=E]2 | %604
 !>![G,_E]2 !>![G,D]2 !>!F2 !>!^F2 |!sfz! [G,G][G,G][G,^F][G,F] [G,=F][G,F][G,=E][G,E] | %606
 [G,_E][G,E]!<(![G,D][G,D] FF^F!<)!F |!sfz! GG^FF DDFF | =FF_DD FF=EE | CC=EE _EE=B,B, | %610
 EEDD _B,B,DD |!sfz!"^poco rit." [^CG]4- [CG]2 z2 |!sfz! [D=c]4- [Dc]2 z2 |!sfz!!<(! [G,D]8- | %614
 [G,D]8- | .[G,D]2!<)! z2 z4 |] %616
V:6
 G,2 x6 | x8 | x8 | x8 | [D,A,]2 x6 | x8 | x8 | x8 | x8 | x8 | x8 | x8 | x8 | x8 | x8 | x8 || x8 | %17
 x8 | x8 | x8 | x8 | x8 | x8 | x8 | x8 | x8 | x8 | x8 | x8 | x8 | x8 | x8 | x8 | x8 | x8 | x8 | %36
 x8 | x8 | x8 | x8 | x8 | x8 | x8 | x8 | G,2 x6 | x8 | x8 | x8 | x8 | x8 | x8 | x8 | x8 | x8 | x8 | %55
 x8 | x8 | x8 | x8 | x8 | x8 | x8 | x8 | x8 | x8 | x8 | x8 | x8 | x8 | x8 | x8 | x8 | x8 | x8 | %74
 x8 | x8 | x8 | x8 | x8 | x8 | x8 | x8 | x8 | x8 | x8 | x8 | x8 | x8 | x8 | x8 | x8 | x8 | x8 | %93
 x8 | x8 | x8 | x8 | x8 | x8 | x8 | x8 | x8 | x8 | x8 | x8 | x8 | x8 | x8 | x8 | x8 | x8 | x8 | %112
 x8 | x8 | x8 | x8 | x8 | x8 | x8 | x8 | x8 | x8 | x8 | x8 | x8 | x8 | x8 | x8 | x8 | x8 | x8 | %131
 x8 | x8 | x8 | x8 | x8 | x8 | x8 | x8 | x8 | x8 | x8 | x8 | x8 | x8 | x8 | x8 | x8 | x8 | x8 | %150
 x8 | x8 | x8 | x8 | x8 | x8 | x8 | x8 | x8 | x8 | x8 | x8 | x8 | x8 | x8 | x8 | x8 | x8 | x8 | %169
 x8 | x8 | x8 | x8 | x8 | x8 | x8 | x8 | x8 | x8 | x8 | x8 | x8 | x8 | x8 | x8 | x8 | x8 | x8 | %188
 x8 | x8 | x8 | x8 | x8 | x8 | x8 | x8 | x8 | x8 | x8 | x8 | x8 | x8 | x8 | x8 | x8 | x8 | x8 | %207
 x8 | x8 | x8 | x8 | x8 | x8 | x8 | x8 | x8 | x8 | x8 | x8 | x8 | x8 | x8 | x8 | x8 | x8 | x8 | %226
 x8 | x8 | x8 | x8 | x8 | x8 | x8 | x8 | x8 | x8 | x8 | x8 | x8 | x8 | x8 | x8 | x8 | x8 | x8 | %245
 x8 | x8 | x8 | x8 | x8 | x8 | x8 | x8 | x8 | x8 | x8 | x8 | x8 | x8 | x8 | x8 | x8 | x8 | x8 | %264
 x8 | x8 | x8 | x8 | x8 | x8 | x8 | x8 | x8 | x8 | x8 | x8 | x8 | x8 | x8 | x8 | x8 | x8 | x8 | %283
 x8 | x8 | x8 | x8 | x8 | x8 | x8 | x8 | x8 | x8 | x8 | x8 | x8 | x8 | x8 | x8 | x8 | x8 | x8 | %302
 x8 | x8 | x8 | x8 | x8 | x8 | x8 | x8 | x8 | x8 | x8 | x8 | x8 | x8 | x8 | x8 | x8 | x8 | x8 | %321
 x8 | E,4 x4 | x8 | x8 | x8 | x8 | x8 | x8 | x8 | x8 | x8 | x8 | x8 | x8 | x8 | x8 | x8 | x8 | x8 | %340
 x8 | x8 | x8 | x8 | x8 | x8 | x8 | x8 | x8 | x8 | G,2 x6 | x8 | x8 | x8 | x8 | x8 | x8 | x8 | x8 | %359
 x8 | x8 | x8 | x8 | x8 | x8 | x8 | x8 | x8 | x8 | x8 | x8 | x8 | x8 | x8 | x8 | x8 | x8 | x8 | %378
 x8 | x8 | x8 | x8 | x8 | x8 | x8 | x8 | x8 | x8 | x8 | x8 | x8 | x8 | x8 | x8 | x8 | x8 | x8 | %397
 x8 | x8 | x8 | x8 | x8 | x8 | x8 | x8 | x8 | x8 | x8 | x8 | x8 | x8 | x8 | x8 | x8 | x8 | x8 | %416
 x8 | x8 | x8 | x8 | x8 | x8 | x8 | x8 | x8 | x8 | x8 | x8 | x8 | x8 | x8 | x8 | x8 | x8 | x8 | %435
 x8 | x8 | x8 | x8 | x8 | x8 | x8 | x8 | x8 | x8 | x8 | x8 | x8 | x8 | x8 | x8 | x8 | x8 | x8 | %454
 x8 | x8 | x8 | x8 | x8 | x8 | x8 | x8 | x8 | x8 | x8 | x8 | x8 | x8 | x8 | x8 | x8 | x8 | x8 | %473
 x8 | x8 | x8 | x8 | x8 | x8 | x8 | x8 | x8 | x8 | x8 | x8 | x8 | x8 | x8 | x8 | x8 | x8 | x8 | %492
 x8 | x8 | x8 | x8 | x8 | x8 | x8 | x8 | x8 | x8 | x8 | x8 | x8 | x8 | x8 | x8 | x8 | x8 | x8 | %511
 x8 | x8 | x8 | x8 | x8 | x8 | x8 | x8 | x8 | x8 | x8 | x8 | x8 | x8 | G,4 x4 | x8 | _E8 | x8 | %529
 x8 | x8 | x8 | x8 | x8 | x8 | x8 | x8 | x8 | x8 | x8 | x8 | x8 | x8 | _E,8 | x8 | x8 | x8 | x8 | %548
 x8 | x8 | x8 | x8 | x8 | x8 | x8 | x8 | x8 | x8 | x8 ||[K:G] x8 | x8 | x8 | x8 | x8 | x8 | x8 | %566
 x8 | x8 | x8 | x8 | x8 | x8 | x8 | x8 | x8 | x8 | x8 | x8 | x8 | x8 | x8 | x8 | x8 | x8 | x8 | %585
 x8 | x8 | x8 | x8 | x8 | x8 | x8 | x8 | x8 | x8 | x8 | x8 | x8 | x8 ||[K:Bb] x8 | x8 | x8 | x8 | %603
 x8 | x8 | x8 | x8 | x8 | x8 | x8 | x8 | x8 | x8 | x8 | x8 | x8 |] %616
V:7
!f! !>!G8 | !>!F4 !>!D2 !>!F2 | !>!F4 (!>!E4- | E4 !>!B,4) | !>!D8- |!>(! D8-!>)! | %6
 D4 (!tenuto!D,4 |!<(! !tenuto!D,4 !tenuto!D,4)!<)! | [C,,D,]8- | ([C,,-D,]8 |!>(! [C,,B,,]8)!>)! | %11
 [C,,C,]8 |!p!!>(! D,,8-!>)! | D,,4 !fermata!z4 |!pp!!>(! D,8-!>)! | D,4 !fermata!z4 || %16
!pp! G,,2 G,,2 G,,2 G,,2 | G,,2 G,,2 G,,2 G,,2 | G,,2 G,,2 G,,2!<(! G,,2!<)! | %19
!>(! G,,2!>)! G,,2 G,,2 G,,2 | B,,2 B,,2 B,,2 B,,2 | B,,2 B,,2 B,,2 B,,2 | %22
 B,,2 B,,2 B,,2!<(! B,,2!<)! |!>(! B,,2!>)! B,,2 B,,2 B,,2 | D,2 D,2 D,2!<(! D,2!<)! | %25
!>(! D,2!>)! D,2 D,2 D,2 | D,2"_cresc." D,2 D,2!<(! D,2!<)! |!>(! D,2!>)! D,2 D,2 D,2 | %28
 !>!D,2 D,2 D,2 D,2 | !>!D,2 D,2 D,2 D,2 | !>!D,2 D,2 D,2 D,2 | !>!D,2 D,2 D,2 D,2 | z8 | %33
!sfz! (DA,)(A,D,) (D,A,)(A,D) |!p! !>!D,2 D,2"_cresc." D,2 D,2 | !>!D,2 D,2 D,2 D,2 | z8 | %37
!sfz! (DA,)(A,D,) (D,A,)(A,D) | z4!f! (!>!DA,)(A,D) | z4!f! (!>!DA,)(A,D) | !>!D4 !>!D4 | %41
 !>!D4 !>!D4 |!sfz! (D,,A,,)(A,,D,) (D,A,)(A,D) |"_sost."!<(! (DA,)(A,D,) (D,A,,)(A,,D,,)!<)! | %44
!ff! [G,,D,]4- ([G,,D,][A,,D,]).[A,,D,].[B,,D,] | [G,,D,]4- ([G,,D,][A,,D,]).[A,,D,].[B,,D,] | %46
 .[G,,D,]2 v[G,,D,]4 [G,,D,]2- | [G,,D,]2 [G,,D,]4 [G,,D,]2 | z2 D,,2 .[G,,D,B,]2 z2 | %49
 z2 D,,2 .[G,,D,B,]2 z2 | z2 D,,2 .[G,,D,B,]2 z2 | z2 D,,2 .[G,,D,B,]2 z2 | %52
 [A,,D,]4- ([A,,D,][B,,D,]).[B,,D,].[C,D,] | [A,,D,]4- ([A,,D,][B,,D,]).[B,,D,].[C,D,] | %54
 .[A,,D,]2 v[A,,D,]4 [A,,D,]2- | [A,,D,]2 [A,,D,]4 [A,,D,]2 | z2 D,,2 .[A,,D,C]2 z2 | %57
 z2 D,,2 .[A,,D,C]2 z2 | z2 D,,2 .[A,,D,C]2 z2 | z2 D,,2 .[A,,D,C]2 z2 | !>!B4 !>!A4 | %61
 !>!_A4 !>!G4 | !>!C4 !>!F4 | !>!B,4 !>!E4 | z4!sfz! D4- | D4 D4 | .B,2 .B,,2 .A,2 .A,,2 | %67
 ._A,2 ._A,,2 .G,2 .G,,2 | .C2 .C,2 .F,2 .F,,2 | .B,2 .B,,2 .E,2 .E,,2 | z4!pp! D,,4 | D,4 D4 | %72
 z4"_cresc." D,,4 | D,4 D4 |"_molto" z4 D,,4 | D,4 D4 | z4 D,,4 | D,4 D4 |!ff! !>![C,,G,,]8 | %79
 !>![E,,G,,]8 | !>![C,,G,,]8 | !>![E,,G,,]8 | !>![C,,G,,]4 !>![E,,G,,]4 | %83
 !>![C,,G,,]4 !>![E,,G,,]4 | !>![C,,G,,]2 !>![E,,G,,]2 !>![C,,G,,]2 !>![E,,G,,]2 | %85
 !>![C,,G,,]2 !>![E,,G,,]2 !>![C,,G,,]2 !>![E,,G,,]2 | %86
 .[G,,D,]2 [G,,D,][G,,D,] .[G,,D,]2 [G,,D,][G,,D,] | %87
 .[G,,D,]2 [G,,D,][G,,D,] .[G,,D,]2 [G,,D,][G,,D,] | z2 !>!G4 !>!^F2 | (!>!D4 !>!B,4) | %90
 .uG,.D,!<(! G,,6- | G,,8- | .[G,,D,B,]4!<)! z4 | z8 | z8 | z8 | z8 | z8 | z8 | z8 | %100
!pp! !tenuto!F,8 | z8 | F,8 | z8 | !tenuto!F,8- | F,4 z4 | z2!ff! !>!B,4 !>!A,2 | (!>!F,4 !>!D,4) | %108
 .uB,,.A,, F,,6- | F,,4 z4 | z8 | z8 | z8 | z8 | z8 | z8 |!pp! !tenuto!C,8 | z8 | C,8 | z8 | %120
 !tenuto!C,8- | C,4 z4 | z2!ff! !>!F,4 !>!=E,2 | (!>!C,4 !>!_A,,4) | .uF,,.=E,, C,,6- | C,,4 z4 | %126
!pp! C,4 C,4 | .C,2 C,4 z2 | .C,2 C,4 z2 | .C,2 C,4 z2 |"_cresc." C,4 C,4 | .C,2 C,4 z2 | %132
 .C,2 C,4 z2 | .C,2 C,4 z2 | z4 .C2 .C2 | z4 .C2 .C2 | z4!sfz! .C2 z2 | z8 | %138
 z4"^pizz."!sfz! C,2 z2 | z8 | z8 | z8 | z8 | z8 | z8 | z8 | z2"^arco"!p! =B,,4 C,2- | %147
 C,2 (D,2 E,2 C2) |!<(! C8-!<)! |!>(! (C8!>)! | C2) D,4 E,2- | E,2 (F,2 G,2 E2) |!<(! (E8!<)! | %153
 (3E2) =B,,2 C,2!<(! (3(D,2 E,2!<)! C2) |"_cresc." (!>!C8 | (3C2) D,2 E,2!<(! (3(F,2 G,2!<)! E2) | %156
 (!>!E4 E)!<(!(=B,,C,!<)!C) | (!>!C4 C)!<(!(D,E,!<)!E) | z8 | z8 | z4 [F,,C,]4- | [F,,C,]8- | %162
 [F,,C,]2 z2 z4 | z8 |!ff! (B4 !tenuto!A2) .F.A | .A2 G4 F2 |[K:bass] (E4 !tenuto!D2) .B,.D | %167
 .D2 C4 B,2- |"_dim. ed un poco rit." B,2 A,4 G,2- | G,2 F,4 (E,2 | !>!D,8) | C,8 | (B,,4 A,,4 | %173
 G,,4 _G,,4) |!p! F,,8- | F,,8 | F,,8 | F,,8 |"_cresc." F,,8 | F,,8 | .F,,2 !>!F,4 !>!F,2- | %181
 F,2 !>!F,4 .F,2 |!f! (3(F,,2 F,2) F,2 (3F,2 F,2 F,2 | !>!F8 | (3(F,,2 F,2) F,2 (3F,2 F,2 F,2 | %185
 !>!F8 |!f! (3(F,,2 F,2) F,2 !>!F4 |"_rit." (3F,,2 F,2 F,2 !>!F4 | F,,2 !>!F4 !>!F2- | %189
 F2 !>!F2 !>!F2 !>!F2 | z8 | (B,4!ff! !tenuto!A,2) .F,.A, | .G,2 F,4 z2 | (E,4 !tenuto!D,2) B,,D, | %194
 .C,2 B,,4!pp! vB,,D, | .C,2 B,,4"_cresc. molto" B,,D, | .C,2 .B,,2 .C,2 .B,,2 | %197
 .C,2 .B,,2 .C,2 .B,,2 | z4!ff! [B,,F,]4- | [B,,F,]4 [B,,F,]4- | [B,,F,]4 [B,,F,]4- | [B,,F,]4 z4 | %202
 z4"_lentamente" !>![B,,F,]4- | [B,,F,]4 !>![B,,F,]4- | [B,,F,]4 !>![B,,F,]4- | %205
 !fermata![B,,F,]4 z4 |!pp! B,,2 B,,2 B,,2 B,,2 | B,,2 B,,2 B,,2 B,,2 | %208
 B,,2 B,,2 B,,2!<(! B,,2!<)! |!>(! B,,2!>)! B,,2 B,,2 B,,2 | z8 |!p! (E,8 | B,,8) | (E,8 | %214
!<(! _D,4 _D,,4)!<)! | z2!pp! C,,6 | z2 C,,6 | z2 C,,6 | z2 C,,6- |"_cresc." C,,2 C,,4 C,,2- | %220
 C,,2 C,,4 C,,2- | C,,2 .C,,2 .C,,2 .C,,2 |"_poco rit." .C,,2 .C,,2 .C,,2 .C,,2 | ^F,,8- | %224
!<(! F,,8-!<)! |!>(! F,,8-!>)! | F,,8 |!pp! =B,,2 B,,2 B,,2 B,,2 | =B,,2 B,,2 B,,2 B,,2 | %229
 =B,,2 B,,2 B,,2!<(! B,,2!<)! |!>(! =B,,2!>)! B,,2 B,,2 B,,2 | z8 | (=E,8 | =B,,8) | (=E,8 | %235
!<(! D,4 D,,4)!<)! | z2!pp! ^C,,6 | z2 ^C,,6 | z2 ^C,,6 | z2 ^C,,6- |"_cresc." C,,2 ^C,,4 C,,2- | %241
 C,,2 ^C,,4 C,,2- | C,,2 .^C,,2 .C,,2 .C,,2 |"_poco rit." .^C,,2 .C,,2 .C,,2 .C,,2 | G,,8- | %245
!<(! G,,8-!<)! |!>(! G,,8-!>)! | G,,8 | %248
 z2!ff! !>![C,,G,,]2- [C,,G,,]!<(!.[D,,G,,].[D,,G,,].[E,,G,,]!<)! | %249
 z2 !>![C,,G,,]2- [C,,G,,]!<(!.[D,,G,,].[D,,G,,].[E,,G,,]!<)! | .[C,,G,,]2 v[D,,G,,]4 [E,,G,,]2- | %251
 [E,,G,,]2 [D,,G,,]4 .[C,,G,,]2 | z8 | z8 | z8 | z8 | %256
!ff! z2 !>![^C,,^G,,]2-!<(! [C,,G,,].[E,,G,,].[E,,G,,].[=E,,G,,]!<)! | %257
 z2 !>![^C,,^G,,]2-!<(! [C,,G,,].[E,,G,,].[E,,G,,].[=E,,G,,]!<)! | %258
 .[^C,,^G,,]2 v[E,,G,,]4 [=E,,G,,]2- | [E,,G,,]2 [_E,,^G,,]4 .[^C,,G,,]2 | z8 | z8 | z8 | z8 | %264
 z2!ff! (!>!D,,2 D,,)!<(!.=E,,.E,,!<)!.F,, | z8 | z8 | z2!ff! !>!E,,2-!<(! E,,.=E,,.E,,.^F,,!<)! | %268
 z8 | z8 | z8 | z8 | z8 | z8 | z8 | z8 | z8 | z8 |!p! F,8- | F,8- | F,8- | F,8 | z8 | z8 |!p! (A8 | %285
 A8) |!<(!({GA} G8 | E4 G4)!<)! |!sfz! (G8 |!>(! ^F8)!>)! |"_cantabile" (A2 B2 c2 B2 | %291
!<(! d2 c2 (3B2 c2 A2)!<)! |!>(! (G8 | ^F8)!>)! | z8 | z8 | z8 | z8 | z8 | z8 | z8 | z8 | %302
!ppp! v[C,,_A,,]8- | [C,,A,,]8 | !tenuto![C,,_A,,]8- | !tenuto![C,,A,,]8 | !>![_D,,_A,,]8- | %307
 [D,,A,,]8- | ([D,,A,,]4 E,,4) | (.E,,4 ._F,,4) | ([C,,-_A,,]8 | ([C,,-G,,]8) | %312
 [C,,_A,,]4) [C,,A,,]4 |!<(! (!tenuto![C,,_A,,]4 !tenuto![C,,A,,]4)!<)! | !>![_D,,_A,,]8- | %315
!<(! [D,,A,,]8-!<)! |!>(! [D,,A,,]8-!>)! | ([D,,A,,]2 E,,2) .E,,2 ._F,,2 | [C,,_A,,]8- | %319
 [C,,A,,]4 (3(.[C,,_A,,]2 .[C,,A,,]2 .[C,,A,,]2) |"_rit. molto"!<(! [C,,_A,,]4 [C,,G,,]4 | %321
 [C,,B,,]4 [C,,_A,,]4!<)! | ([=E,,-=B,,]8 |!>(! ([E,,-_B,,]8) | ([E,,-B,,]8) | [E,,B,,]8)!>)! | %326
!ppp! D,,2 D,,2 D,,2 D,,2 | D,,2 D,,2 D,,2 D,,2 | D,,2 D,,2 D,,2!<(! D,,2!<)! | %329
!>(! D,,2!>)! D,,2 D,,2 D,,2 | D,,2 D,,2 D,,2 D,,2 | D,,2 D,,2 D,,2 D,,2 | %332
 D,,2 D,,2 D,,2!<(! D,,2!<)! |!>(! D,,2!>)! D,,2 D,,2 D,,2 |"_cresc." D,,2 D,,2 D,,2!<(! D,,2!<)! | %335
!>(! D,,2!>)! D,,2 D,,2 D,,2 | D,,2 D,,2 D,,2!<(! D,,2!<)! |!>(! D,,2!>)! D,,2 D,,2 D,,2 | %338
 !>!D,,2 D,,2 D,,2 D,,2 | !>!D,,2 D,,2 D,,2 D,,2 | !>!D,,2 D,,2 D,,2 D,,2 | %341
 !>!D,,2 D,,2 D,,2 D,,2 | z8 |!sfz! (DA,)A,D, (D,A,)(A,D) | z4!f! (DA,)(A,D) | z4 (DA,)(A,D) | %346
!f! !>!D4 !>!D4 | !>!D4 !>!D4 | (!>!D,,A,,)(A,,D,) (D,A,)(A,D) | %349
"_sost." (DA,)(A,D,) (D,A,,)(A,,D,,) |!ff! [G,,D,]4- ([G,,D,][A,,D,]).[A,,D,].[B,,D,] | %351
 [G,,D,]4- ([G,,D,][A,,D,]).[A,,D,].[B,,D,] | .[G,,D,]2 v[G,,D,]4 [G,,D,]2- | %353
 [G,,D,]2 [G,,D,]4 [G,,D,]2 | z2 D,,2 !>![G,,D,B,]2 z2 | z2 D,,2 !>![G,,D,B,]2 z2 | %356
 z2 D,,2 !>![G,,D,B,]2 z2 | z2 D,,2 !>![G,,D,B,]2 z2 | [A,,D,]4- ([A,,D,][B,,D,]).[B,,D,].[C,D,] | %359
 [A,,D,]4- ([A,,D,][B,,D,]).[B,,D,].[C,D,] | .[A,,D,]2 v[A,,D,]4 [A,,D,]2- | %361
 [A,,D,]2 [A,,D,]4 [A,,D,]2 | z2 D,,2 !>![F,,D,C]2 z2 | z2 D,,2 !>![F,,D,C]2 z2 | %364
 z2 D,,2 !>![A,,D,C]2 z2 | z2 D,,2 !>![A,,D,C]2 z2 | !>!B4 !>!A4 | !>!_A4 !>!G4 | !>!C4 !>!F4 | %369
 !>!B,4 !>!E4 | z4!sfz! D4- | D4 D4 | !>!.B,2 .B,,2 !>!.A,2 .A,,2 | !>!._A,2 ._A,,2 !>!.G,2 .G,,2 | %374
 !>!.C2 .C,2 !>!.F,2 .F,,2 | !>!.B,2 .B,,2 !>!.E,2 .E,,2 | z4!pp! D,,4 | D,4 D4 | z4 D,,4 | %379
"_cresc. molto e stretto" D,4 D4 | z4 D,,4 | D,4 D4 | z4 D,,4 | D,4 D4 |!ff! !>![C,,G,,]8 | %385
 !>![E,,G,,]8 | !>![C,,G,,]8 | !>![E,,G,,]8 | !>![C,,G,,]4 !>![E,,G,,]4 | %389
 !>![C,,G,,]4 !>![E,,G,,]4 | !>![C,,G,,]2 !>![E,,G,,]2 !>![C,,G,,]2 !>![E,,G,,]2 | %391
 !>![C,,G,,]2 !>![E,,G,,]2 !>![C,,G,,]2 !>![E,,G,,]2 | %392
 !>!.[G,,D,]2 [G,,D,][G,,D,] !>!.[G,,D,]2 [G,,D,][G,,D,] | %393
 !>!.[G,,D,]2 [G,,D,][G,,D,] !>!.[G,,D,]2 [G,,D,][G,,D,] | z2 !>!G4 !>!^F2 | (!>!D4 !>!B,4) | %396
 !>!.uG,.D,!<(! G,,6- | G,,8- | .[G,,D,B,]4!<)! z4 | z8 | z8 | z8 | z8 | z8 | z8 | z8 | %406
!pp! !tenuto!B,,8 | z8 | !tenuto!B,,8 | z8 | B,,8- | B,,4 z4 | z2!ff! !>!E4 !>!D2 | %413
 (!>!B,4 !>!G,4) | !>!.uE,.D, B,,6- | B,,4 z4 | z8 | z8 | z8 | z8 | z8 | z8 |!pp! !tenuto!F,8 | %423
 z8 | !tenuto!F,8 | z8 | !tenuto!F,8- | F,4 z4 | z2!ff! !>!B,4 !>!A,2 | (!>!F,4 !>!_D,4) | %430
 !>!.uB,,.A,, F,,6- | F,,4 z4 |"^animato"!pp! F,,4 F,,4 | !>!.F,,2 F,,4 z2 | !>!.F,,2 F,,4 z2 | %435
 !>!.F,,2 F,,4 z2 |"_poco a poco cresc." F,,4 F,,4 | !>!.F,,2 F,,4 z2 | !>!.F,,2 F,,4 z2 | %439
 !>!.F,,2 F,,4 z2 | z4 !>!.F,2 .F,2 | z4 !>!.F,2 .F,2 | z4!sfz! F2 z2 | z8 | %444
 z4!sfz!"^pizz." [F,,C,_A,]2 z2 | z8 | z8 | z8 | z8 | z8 | z8 | z8 | z2!p!"^arco" =E,4 F,2- | %453
 F,2 (G,2 _A,2 F2) |!<(! !>!F8-!<)! |!>(! F8-!>)! | F2 G,4 _A,2- | A,2 (B,2 C2 _A2) | %458
!>(!!<(! _A8-!>)!!<)! | (3A2!<(! =E,2 F,2 (3(G,2 _A,2 F2)!<)! |"_cresc." !>!F8- | %461
 (3F2 G,2!<(! _A,2 (3B,2 C2 _A2!<)! | _A4- A!<(!(=E,F,F)!<)! | !>!F4- F!<(!(G,_A,!<)!_A) | z8 | %465
 z8 | z4 [B,,F,]4- | [B,,F,]8- | [B,,F,]2 z2 z4 | z8 |[K:tenor]!ff! (!tenuto!e4 !tenuto!d2) .B.d | %471
 !>!.d2 c4 B2 | (_A4 !tenuto!G2) .E.G | !>!.G2 F4 (E2- |"_dim." E2) D4 (C2- | %475
 C2) B,4[K:bass] (_A,2 | !>!G,8 | F,8 | E,8) | (D,8 | C,8 | B,,8) |!pp!!pp! (_A,,4 G,,4) | %483
 (F,,4 B,,4 | _A,,4 C,4) | (B,,4"_cresc." _A,,4) | (G,,4 C,4 | B,,4 _D,4) | (C,4 B,,4) | %489
!f! (!>!A,,4 =D,4 | C,4 E,4) |"_dimin. e sempre ritard." (B,,4 A,,4) | (G,,4 ^F,,4) | %493
 (B,,4"^rd." A,,4) | (G,,4 ^F,,4) |!p!!p! (G,,4 =F,,4 |!>(! =E,,4 _E,,4)!>)! |!pp! (D,,8 | _D,,8) | %499
 (C,,8 | E,,8) | (D,,4"_cresc." F,,4) | (=E,,4 _E,,4 | .D,,2) D,4!<(! (D,2 | D,2)!<)! D,4 D,2 | %505
!mf! (3(D,,2 D,2) D,2 (3D,2 D,2 D,2 | !>!D8 | (3(D,,2"_cresc. sempre" D,2) D,2 (3D,2 D,2 D,2 | %508
 !>!D8 | (3D,,2 D,2 D,2 !>!D4 |"^rit." (3D,,2 D,2 D,2 !>!D4 | z2[K:tenor]!f! !>!d4 (!>!d2- | %512
 d2) !>!d2 !>!d2 !>!d2 | z8 |[K:bass] (!tenuto!G,4 !tenuto!F,2) D,F, | !>!E,2 D,4 z2 | %516
 (!tenuto!C,4 !tenuto!B,,2) G,,B,, | !>!.A,,2 G,,4!pp! vG,,B,, | !>!.A,,2 G,,4 G,,B,, | %519
"_cresc. molto" .A,,2 .G,,2 .A,,2 .G,,2 | .A,,2 .G,,2 .A,,2 .G,,2 | z4!f! [G,,D,]4- | %522
 [G,,D,]4 [G,,D,]4- | [G,,D,]4!<(! [G,,D,]4 | ([G,,D,]4 !tenuto![G,,D,]4)!<)! | [C,,G,,]8- | %526
 [C,,G,,]8- |!<(! ([C,,G,,-]8!<)! | [D,,G,,]8) | [E,,G,,]8- | [E,,G,,]8- |!<(! [E,,G,,]8-!<)! | %532
 [E,,G,,]8 |!ff! ((((([D,,G,,]8 | [D,,B,,]8))))) |!>(! [D,,D,]8- | [D,,D,]8!>)! | z4!p! [G,,D,]4- | %538
 [G,,D,]4 [G,,D,]4- | [G,,D,]4 (!tenuto![G,,D,]4 |!>(! !tenuto![G,,D,]4 !tenuto![G,,D,]4)!>)! | %541
!ppp! !>![C,,G,,]8- | [C,,G,,]8- | ([C,,G,,-]8 | [D,,G,,]8) | !>![E,,G,,]8- | [E,,G,,]8- | %547
 [E,,G,,]8- | [E,,G,,]8 | ((([D,,G,,]8 | [D,,B,,]8))) | [D,,A,,]8- | [D,,A,,]8 | z8 | z8 | %555
 .F,,4 ((E,,4- | E,,4) D,,4) | z8 | z8 ||[K:G] z8 | z8 | z8 | z8 | %563
"_cantabile e molto espress."!p! G8- | G8 | (F8 |!<(! D4 F4)!<)! | (F8 |!>(! E8- | E8!>)! | B,8) | %571
!<(! (D8 | D8)!<)! |!>(! (E8 | F8)!>)! |!<(! D8- | D8!<)! | (E4!>(! (G4 | G4) F4)!>)! | D8- | %580
!<(! D8!<)! |!>(! (E4 B4!>)! |{AB} A4 F4) | !>!.E4 z4 | D8- |!>(! D8-!>)! | D2 z2 z4 | z8 | z8 | %589
 z8 | z8 |"_dim." !>!._E4 z4 | D8- | D8- | D2 z2 z4 | z8 | z8 | z8 | !fermata!z8 || %599
[K:Bb]"_al ordinario"!ff! !>![G,,D,]4 !>![A,,D,]4 | z2 !>!.B,,2 !>!.C,2 z2 | !>!E,4 !>!G,4 | %602
 !>!.B,2 !>!.D2 z4 |!sfz! !>![G,,D,]2 !>![A,,D,]2 !>!B,,2 !>!C,2 | !>!E,2 !>!G,2 !>!B,2 !>!D2 | %605
!sfz! [G,,D,][G,,D,][A,,D,][A,,D,] B,,B,,C,C, | E,E,!<(!G,G, B,B,D!<)!D |!sfz! GG^FF DDFF | %608
 =FF_DD FF=EE | CC=EE _EE=B,B, | EEDD _B,B,DD |!sfz!"^poco rit." (A,4- A,2) z2 | %612
!sfz! [D,A,]4- [D,A,]2 z2 |!sfz!!<(! [G,,D,]8- | [G,,D,]8- | .[G,,D,]2!<)! z2 z4 |] %616
V:8
 [G,,D,]2 x6 | x8 | x8 | x8 | [D,,A,,D,]2 x6 | x8 | x8 | x8 | x8 | x8 | x8 | x8 | x8 | x8 | x8 | %15
 x8 || x8 | x8 | x8 | x8 | x8 | x8 | x8 | x8 | x8 | x8 | x8 | x8 | x8 | x8 | x8 | x8 | x8 | x8 | %34
 x8 | x8 | x8 | x8 | x8 | x8 | x8 | x8 | x8 | x8 | x8 | x8 | x8 | x8 | x8 | x8 | x8 | x8 | x8 | %53
 x8 | x8 | x8 | x8 | x8 | x8 | x8 | x8 | x8 | x8 | x8 | x8 | x8 | x8 | x8 | x8 | x8 | x8 | x8 | %72
 x8 | x8 | x8 | x8 | x8 | x8 | x8 | x8 | x8 | x8 | x8 | x8 | x8 | x8 | x8 | x8 | x8 | x8 | x8 | %91
 x8 | x8 | x8 | x8 | x8 | x8 | x8 | x8 | x8 | x8 | x8 | x8 | x8 | x8 | x8 | x8 | x8 | x8 | x8 | %110
 x8 | x8 | x8 | x8 | x8 | x8 | x8 | x8 | x8 | x8 | x8 | x8 | x8 | x8 | x8 | x8 | x8 | x8 | x8 | %129
 x8 | x8 | x8 | x8 | x8 | x8 | x8 | x8 | x8 | x8 | x8 | x8 | x8 | x8 | x8 | x8 | x8 | x8 | x8 | %148
 x8 | x8 | x8 | x8 | x8 | x8 | x8 | x8 | x8 | x8 | x8 | x8 | x8 | x8 | x8 | x8 | x8 | x8 | %166
[K:bass] x8 | x8 | x8 | x8 | x8 | x8 | x8 | x8 | x8 | x8 | x8 | x8 | x8 | x8 | x8 | x8 | x8 | x8 | %184
 x8 | x8 | x8 | x8 | x8 | x8 | x8 | x8 | x8 | x8 | x8 | x8 | x8 | x8 | x8 | x8 | x8 | x8 | x8 | %203
 x8 | x8 | x8 | x8 | x8 | x8 | x8 | x8 | x8 | x8 | x8 | x8 | x8 | x8 | x8 | x8 | x8 | x8 | x8 | %222
 x8 | x8 | x8 | x8 | x8 | x8 | x8 | x8 | x8 | x8 | x8 | x8 | x8 | x8 | x8 | x8 | x8 | x8 | x8 | %241
 x8 | x8 | x8 | x8 | x8 | x8 | x8 | x8 | x8 | x8 | x8 | x8 | x8 | x8 | x8 | x8 | x8 | x8 | x8 | %260
 x8 | x8 | x8 | x8 | x8 | x8 | x8 | x8 | x8 | x8 | x8 | x8 | x8 | x8 | x8 | x8 | x8 | x8 | x8 | %279
 x8 | x8 | x8 | x8 | x8 | x8 | x8 | x8 | x8 | x8 | x8 | x8 | x8 | x8 | x8 | x8 | x8 | x8 | x8 | %298
 x8 | x8 | x8 | x8 | x8 | x8 | x8 | x8 | x8 | x8 | x8 | x8 | x8 | x8 | x8 | x8 | x8 | x8 | x8 | %317
 x8 | x8 | x8 | x8 | x8 | x8 | x8 | x8 | x8 | x8 | x8 | x8 | x8 | x8 | x8 | x8 | x8 | x8 | x8 | %336
 x8 | x8 | x8 | x8 | x8 | x8 | x8 | x8 | x8 | x8 | x8 | x8 | x8 | x8 | x8 | x8 | x8 | x8 | x8 | %355
 x8 | x8 | x8 | x8 | x8 | x8 | x8 | x8 | x8 | x8 | x8 | x8 | x8 | x8 | x8 | x8 | x8 | x8 | x8 | %374
 x8 | x8 | x8 | x8 | x8 | x8 | x8 | x8 | x8 | x8 | x8 | x8 | x8 | x8 | x8 | x8 | x8 | x8 | x8 | %393
 x8 | x8 | x8 | x8 | x8 | x8 | x8 | x8 | x8 | x8 | x8 | x8 | x8 | x8 | x8 | x8 | x8 | x8 | x8 | %412
 x8 | x8 | x8 | x8 | x8 | x8 | x8 | x8 | x8 | x8 | x8 | x8 | x8 | x8 | x8 | x8 | x8 | x8 | x8 | %431
 x8 | x8 | x8 | x8 | x8 | x8 | x8 | x8 | x8 | x8 | x8 | x8 | x8 | x8 | x8 | x8 | x8 | x8 | x8 | %450
 x8 | x8 | x8 | x8 | x8 | x8 | x8 | x8 | x8 | x8 | x8 | x8 | x8 | x8 | x8 | x8 | x8 | x8 | x8 | %469
 x8 |[K:tenor] x8 | x8 | x8 | x8 | x8 | x6[K:bass] x2 | x8 | x8 | x8 | x8 | x8 | x8 | x8 | x8 | %484
 x8 | x8 | x8 | x8 | x8 | x8 | x8 | x8 | x8 | x8 | x8 | x8 | x8 | x8 | x8 | x8 | x8 | x8 | x8 | %503
 x8 | x8 | x8 | x8 | x8 | x8 | x8 | x8 | x2[K:tenor] x6 | x8 | x8 |[K:bass] x8 | x8 | x8 | x8 | %518
 x8 | x8 | x8 | x8 | x8 | x8 | x8 | x8 | x8 | x8 | x8 | x8 | x8 | x8 | x8 | x8 | x8 | x8 | x8 | %537
 x8 | x8 | x8 | x8 | x8 | x8 | x8 | x8 | x8 | x8 | x8 | x8 | x8 | x8 | x8 | x8 | x8 | x8 | x8 | %556
 x8 | x8 | x8 ||[K:G] x8 | x8 | x8 | x8 | x8 | x8 | x8 | x8 | x8 | x8 | x8 | x8 | x8 | x8 | x8 | %574
 x8 | x8 | x8 | x8 | x8 | x8 | x8 | x8 | x8 | x8 | x8 | x8 | x8 | x8 | x8 | x8 | x8 | x8 | x8 | %593
 x8 | x8 | x8 | x8 | x8 | x8 ||[K:Bb] x8 | x8 | x8 | x8 | x8 | x8 | x8 | x8 | x8 | x8 | x8 | x8 | %611
 x8 | x8 | x8 | x8 | x8 |] %616

